%
O01001 (C2-CC-EXERCISE)
(Using high feed G1 F650. instead of G0.)
(Machine)
(  vendor: Haas Automation)
(  model: HAAS UMC-750)
(T3 D=0.201 CR=0. TAPER=118deg - ZMIN=-1.8004 - drill)
(T6 D=0.125 CR=0.0625 - ZMIN=-0.864 - ball end mill)
(T8 D=0.25 CR=0. - ZMIN=-1.2396 - flat end mill)
(T10 D=0.5 CR=0. - ZMIN=-1.24 - flat end mill)
(T12 D=3.175 CR=0. TAPER=45deg - ZMIN=-0.04 - face mill)
N10 G90 G94 G17
N15 G20
N20 G53 G0 Z0.

(Face2)
N25 T12 M6
(Empty ADJ Positions)
N30 S550 M3
N35 G54
N40 G53 G0 X-29. Y-8.
N45 G0 B0. C0.
N50 G0 X5.6438 Y-1.29
N55 G43 Z0.6 H12
N60 T10
N65 G0 Z0.2775
N70 G18 G3 X5.3262 Z-0.04 I-0.3175 K0. F15.
N75 G1 X3.58
N80 X0.
N85 G3 X-0.3175 Z0.2775 I0. K0.3175
N90 G0 Z0.6
N95 M5
N100 G53 G0 Z0.

(2D Contour1)
N105 M1
N110 T10 M6
N115 S1140 M3
N120 G54
N125 G0 B0. C0.
N130 M8
N135 G17
N140 G0 X3.09 Y-2.99
N145 G43 Z0.6 H10
N150 T8
N155 G0 Z0.2
N160 G1 Z0.0394 F100.
N165 Z-1.19
N170 G19 G3 Y-2.94 Z-1.24 J0.05 K0. F22.8
N175 G1 Y-2.89
N180 G17 G3 X3.04 Y-2.84 I-0.05 J0.
N185 G1 X0.54
N190 G2 X-0.26 Y-2.04 I0. J0.8
N195 G1 Y-0.54
N200 G2 X0.54 Y0.26 I0.8 J0.
N205 G1 X3.04
N210 G2 X3.84 Y-0.54 I0. J-0.8
N215 G1 Y-2.04
N220 G2 X3.04 Y-2.84 I-0.8 J0.
N225 X3.0025 Y-2.815 I0. J0.0406
N230 G3 X2.965 Y-2.79 I-0.0375 J-0.0156
N235 G1 X0.54
N240 G2 X-0.21 Y-2.04 I0. J0.75
N245 G1 Y-0.54
N250 G2 X0.54 Y0.21 I0.75 J0.
N255 G1 X3.04
N260 G2 X3.79 Y-0.54 I0. J-0.75
N265 G1 Y-2.04
N270 G2 X3.04 Y-2.79 I-0.75 J0.
N275 G1 X2.965
N280 G3 X2.915 Y-2.84 I0. J-0.05
N285 G1 Y-2.89
N290 G19 G2 Y-2.94 Z-1.19 J0. K0.05
N295 G0 Z0.6
N300 M9
N305 M5
N310 G53 G0 Z0.

(Adaptive3)
N315 M1
N320 T8 M6
N325 S2280 M3
N330 G54
N335 G0 B0. C0.
N340 M8
N345 G17
N350 G0 X-0.0254 Y-2.8681
N355 G43 Z0.6 H8
N360 T3
N365 G0 Z0.2
N370 Z-0.3437
N375 G1 Z-0.3687 F11.4
N380 X-0.0253 Y-2.8678 Z-0.3726
N385 X-0.0251 Y-2.8669 Z-0.3764
N390 X-0.0247 Y-2.8654 Z-0.3801
N395 X-0.0242 Y-2.8634 Z-0.3834
N400 X-0.0236 Y-2.861 Z-0.3864
N405 X-0.0228 Y-2.8581 Z-0.3889
N410 X-0.022 Y-2.8548 Z-0.391
N415 X-0.0211 Y-2.8513 Z-0.3925
N420 X-0.0201 Y-2.8476 Z-0.3934
N425 X-0.0192 Y-2.8438 Z-0.3937
N430 G3 X0.0004 Y-2.7077 I-0.6183 J0.1584
N435 G1 Y-2.7017
N440 X-0.0071 Y-2.6635
N445 X-0.0122 Y-2.6248
N450 X-0.0158 Y-2.586
N455 X-0.0183 Y-2.5471
N460 X-0.02 Y-2.5081
N465 X-0.0211 Y-2.4692
N470 X-0.0219 Y-2.4302
N475 X-0.0225 Y-2.3912
N480 X-0.0228 Y-2.3522
N485 X-0.0231 Y-2.3132
N490 X-0.0233 Y-2.2742
N495 X-0.0235 Y-2.1962
N500 X-0.0237 Y-2.0793
N505 X-0.0239 Y-1.7284
N510 X-0.0243 Y-0.7146
N515 X-0.0245 Y-0.1102
N520 X-0.0186 Y-0.0917
N525 X0.0022 Y-0.0587
N530 X0.0326 Y-0.0342
N535 X0.0674 Y-0.0166
N540 X0.1043 Y-0.0042
N545 X0.1423 Y0.0045
N550 X0.1808 Y0.0105
N555 X0.2196 Y0.0147
N560 X0.2585 Y0.0175
N565 X0.2974 Y0.0195
N570 X0.3364 Y0.0209
N575 X0.3754 Y0.0218
N580 X0.4144 Y0.0224
N585 X0.4534 Y0.0229
N590 X0.4923 Y0.0232
N595 X0.5313 Y0.0234
N600 X0.5703 Y0.0235
N605 X0.6483 Y0.0237
N610 X0.8043 Y0.0238
N615 X0.9814 Y0.0239
N620 X0.9922 Y0.0249
N625 X1.0025 Y0.0279
N630 X1.0122 Y0.0327
N635 X1.0426 Y0.0516
N640 X1.0462 Y0.0536
N645 X1.0594 Y0.0605
N650 X1.0639 Y0.0628
N655 X1.0905 Y0.0746
N660 X1.0994 Y0.0785
N665 X1.1082 Y0.0819
N670 X1.1171 Y0.085
N675 X1.1259 Y0.0874
N680 X1.1436 Y0.092
N685 X1.1525 Y0.0942
N690 X1.1702 Y0.0984
N695 X1.179 Y0.0999
N700 X1.1968 Y0.1017
N705 X1.2056 Y0.1026
N710 X1.2233 Y0.104
N715 X1.2322 Y0.1047
N720 X1.2587 Y0.105
N725 X2.3213
N730 X2.3478 Y0.1047
N735 X2.3567 Y0.104
N740 X2.3744 Y0.1026
N745 X2.3832 Y0.1017
N750 X2.401 Y0.0999
N755 X2.4098 Y0.0984
N760 X2.4275 Y0.0942
N765 X2.4364 Y0.092
N770 X2.4555 Y0.087
N775 X2.4629 Y0.085
N780 X2.4718 Y0.0819
N785 X2.4806 Y0.0785
N790 X2.4984 Y0.0707
N795 X2.5307 Y0.0582
N800 X2.5612 Y0.0491
N805 X2.5993 Y0.0411
N810 X2.6379 Y0.0357
N815 X2.6768 Y0.0321
N820 X2.7157 Y0.0296
N825 X2.7546 Y0.0279
N830 X2.7936 Y0.0268
N835 X2.8326 Y0.0261
N840 X2.8716 Y0.0256
N845 X2.9106 Y0.0252
N850 X2.9495 Y0.025
N855 X2.9885 Y0.0248
N860 X3.0665 Y0.0246
N865 X3.1835
N870 X3.4564
N875 X3.4662 Y0.0245
N880 X3.4758 Y0.0227
N885 X3.4941 Y0.016
N890 X3.5256 Y-0.0069
N895 X3.5489 Y-0.0382
N900 X3.5655 Y-0.0734
N905 X3.5773 Y-0.1106
N910 X3.5855 Y-0.1487
N915 X3.5912 Y-0.1873
N920 X3.5951 Y-0.2261
N925 X3.5978 Y-0.265
N930 X3.5997 Y-0.3039
N935 X3.6009 Y-0.3429
N940 X3.6018 Y-0.3819
N945 X3.6024 Y-0.4209
N950 X3.6028 Y-0.4599
N955 X3.6031 Y-0.4988
N960 X3.6033 Y-0.5378
N965 X3.6035 Y-0.5768
N970 X3.6036 Y-0.6548
N975 X3.6038 Y-0.8108
N980 Y-0.9277
N985 X3.6044 Y-2.4679
N990 X3.5992 Y-2.4867
N995 X3.5794 Y-2.5202
N1000 X3.5494 Y-2.5452
N1005 X3.5148 Y-2.5631
N1010 X3.4779 Y-2.5758
N1015 X3.4399 Y-2.5847
N1020 X3.4014 Y-2.5909
N1025 X3.3627 Y-2.5951
N1030 X3.3238 Y-2.5981
N1035 X3.2849 Y-2.6001
N1040 X3.2459 Y-2.6014
N1045 X3.2069 Y-2.6024
N1050 X3.1679 Y-2.603
N1055 X3.1289 Y-2.6035
N1060 X3.09 Y-2.6038
N1065 X3.051 Y-2.604
N1070 X3.012 Y-2.6041
N1075 X2.934 Y-2.6043
N1080 X2.778 Y-2.6044
N1085 X2.5978
N1090 X2.587 Y-2.6054
N1095 X2.5766 Y-2.6084
N1100 X2.567 Y-2.6132
N1105 X2.5374 Y-2.6316
N1110 X2.5338 Y-2.6336
N1115 X2.5206 Y-2.6405
N1120 X2.5161 Y-2.6428
N1125 X2.4895 Y-2.6546
N1130 X2.4806 Y-2.6585
N1135 X2.4718 Y-2.6619
N1140 X2.4629 Y-2.665
N1145 X2.4541 Y-2.6674
N1150 X2.4364 Y-2.672
N1155 X2.4275 Y-2.6742
N1160 X2.4098 Y-2.6784
N1165 X2.401 Y-2.6799
N1170 X2.3832 Y-2.6817
N1175 X2.3744 Y-2.6826
N1180 X2.3567 Y-2.684
N1185 X2.3478 Y-2.6847
N1190 X2.3213 Y-2.685
N1195 X1.2587
N1200 X1.2322 Y-2.6847
N1205 X1.2233 Y-2.684
N1210 X1.2056 Y-2.6826
N1215 X1.1968 Y-2.6817
N1220 X1.179 Y-2.6799
N1225 X1.1702 Y-2.6784
N1230 X1.1525 Y-2.6742
N1235 X1.1436 Y-2.672
N1240 X1.1245 Y-2.667
N1245 X1.1171 Y-2.665
N1250 X1.1082 Y-2.6619
N1255 X1.0994 Y-2.6585
N1260 X1.0816 Y-2.6507
N1265 X1.0498 Y-2.6383
N1270 X1.0193 Y-2.6293
N1275 X0.9811 Y-2.6213
N1280 X0.9425 Y-2.6159
N1285 X0.9037 Y-2.6122
N1290 X0.8648 Y-2.6098
N1295 X0.8258 Y-2.6081
N1300 X0.7869 Y-2.607
N1305 X0.7479 Y-2.6062
N1310 X0.7089 Y-2.6057
N1315 X0.6699 Y-2.6053
N1320 X0.6309 Y-2.6051
N1325 X0.5919 Y-2.6049
N1330 X0.5139 Y-2.6047
N1335 X0.397 Y-2.6046
N1340 X0.2215
N1345 X0.2025 Y-2.6004
N1350 X0.168 Y-2.5822
N1355 X0.1418 Y-2.5534
N1360 X0.1226 Y-2.5194
N1365 X0.1088 Y-2.483
N1370 X0.099 Y-2.4452
N1375 X0.0921 Y-2.4068
N1380 X0.0873 Y-2.3682
N1385 X0.0839 Y-2.3293
N1390 X0.0816 Y-2.2904
N1395 X0.0799 Y-2.2514
N1400 X0.0788 Y-2.2125
N1405 X0.078 Y-2.1735
N1410 X0.0775 Y-2.1345
N1415 X0.0771 Y-2.0955
N1420 X0.0768 Y-2.0565
N1425 X0.0766 Y-2.0175
N1430 X0.0764 Y-1.9395
N1435 X0.0762 Y-1.8226
N1440 X0.076 Y-1.5496
N1445 X0.0755 Y-0.2434
N1450 X0.0796 Y-0.2244
N1455 X0.095 Y-0.1886
N1460 X0.1209 Y-0.1595
N1465 X0.1528 Y-0.137
N1470 X0.188 Y-0.1202
N1475 X0.225 Y-0.1079
N1480 X0.2629 Y-0.0988
N1485 X0.3014 Y-0.0923
N1490 X0.3401 Y-0.0876
N1495 X0.3789 Y-0.0843
N1500 X0.4179 Y-0.0819
N1505 X0.4568 Y-0.0802
N1510 X0.4958 Y-0.079
N1515 X0.5348 Y-0.0782
N1520 X0.5737 Y-0.0776
N1525 X0.6127 Y-0.0772
N1530 X0.6517 Y-0.0769
N1535 X0.6907 Y-0.0766
N1540 X0.7297 Y-0.0765
N1545 X0.8077 Y-0.0763
N1550 X0.8319
N1555 X0.8447 Y-0.0748
N1560 X0.8568 Y-0.0706
N1565 X0.8677 Y-0.0639
N1570 X0.9046 Y-0.0352
N1575 X0.9147 Y-0.0281
N1580 X0.9223 Y-0.0231
N1585 X1.0122 Y0.0327
N1590 G3 X1.0232 Y0.0551 I-0.0139 J0.0208
N1595 X0.9704 Y0.0959 I-0.0444 J-0.0029
N1600 X0.8763 Y-0.0404 I0.0222 J-0.116
N1605 G2 X0.8677 Y-0.0639 I-0.0246 J-0.0043
N1610 G1 X0.8115 Y-0.1078 F10.26
N1615 X0.7971 Y-0.1179
N1620 X0.7839 Y-0.1257
N1625 X0.7667 Y-0.134
N1630 X0.744 Y-0.1429
N1635 X0.7128 Y-0.1522
N1640 X0.6747 Y-0.1604
N1645 X0.6361 Y-0.166
N1650 X0.5973 Y-0.1701
N1655 X0.5584 Y-0.1732
N1660 X0.5195 Y-0.1757
N1665 X0.4806 Y-0.1782
N1670 X0.4417 Y-0.1808
N1675 X0.4028 Y-0.184
N1680 X0.3641 Y-0.1883
N1685 X0.3256 Y-0.1944
N1690 X0.3067 Y-0.1991
N1695 X0.2884 Y-0.2059
N1700 X0.256 Y-0.2276
N1705 X0.232 Y-0.2583
N1710 X0.2149 Y-0.2933
N1715 X0.2028 Y-0.3304
N1720 X0.1943 Y-0.3685
N1725 X0.1884 Y-0.407
N1730 X0.1844 Y-0.4458
N1735 X0.1816 Y-0.4847
N1740 X0.1797 Y-0.5236
N1745 X0.1785 Y-0.5626
N1750 X0.1776 Y-0.6016
N1755 X0.177 Y-0.6406
N1760 X0.1766 Y-0.6796
N1765 X0.1763 Y-0.7185
N1770 X0.1761 Y-0.7575
N1775 X0.176 Y-0.7965
N1780 X0.1759 Y-0.8745
N1785 Y-1.0305
N1790 X0.1761 Y-1.6153
N1795 X0.1762 Y-1.8103
N1800 X0.1764 Y-1.9273
N1805 X0.1765 Y-1.9663
N1810 X0.1767 Y-2.0052
N1815 X0.1769 Y-2.0442
N1820 X0.1772 Y-2.0832
N1825 X0.1777 Y-2.1222
N1830 X0.1784 Y-2.1612
N1835 X0.1793 Y-2.2002
N1840 X0.1807 Y-2.2391
N1845 X0.1828 Y-2.2781
N1850 X0.1859 Y-2.3169
N1855 X0.1906 Y-2.3556
N1860 X0.1944 Y-2.3748
N1865 X0.2015 Y-2.3929
N1870 X0.2236 Y-2.425
N1875 X0.2546 Y-2.4487
N1880 X0.2897 Y-2.4657
N1885 X0.3268 Y-2.4777
N1890 X0.3649 Y-2.4861
N1895 X0.4034 Y-2.492
N1900 X0.4422 Y-2.496
N1905 X0.4811 Y-2.4988
N1910 X0.52 Y-2.5008
N1915 X0.559 Y-2.5022
N1920 X0.598 Y-2.5032
N1925 X0.637 Y-2.504
N1930 X0.7149 Y-2.5056
N1935 X0.7539 Y-2.5065
N1940 X0.7929 Y-2.5077
N1945 X0.8318 Y-2.5093
N1950 X0.8431 Y-2.51
N1955 X0.8547 Y-2.5119
N1960 X0.8657 Y-2.516
N1965 X0.8756 Y-2.5223
N1970 X0.9046 Y-2.5448
N1975 X0.9147 Y-2.5519
N1980 X0.9223 Y-2.5569
N1985 X1.0426 Y-2.6316
N1990 X1.0462 Y-2.6336
N1995 X1.0594 Y-2.6405
N2000 X1.0639 Y-2.6428
N2005 X1.0816 Y-2.6507
N2010 G2 X1.0956 Y-2.6714 I-0.011 J-0.0225 F11.4
N2015 X1.0415 Y-2.7303 I-0.0549 J-0.0039
N2020 X0.8842 Y-2.5457 I-0.0022 J0.1575
N2025 G3 X0.8756 Y-2.5223 I-0.0246 J0.0043
N2030 G1 X0.816 Y-2.4757
N2035 X0.7994 Y-2.4641
N2040 X0.7856 Y-2.456
N2045 X0.7678 Y-2.4473
N2050 X0.7441 Y-2.4381
N2055 X0.7112 Y-2.4282
N2060 X0.6731 Y-2.42
N2065 X0.6346 Y-2.4142
N2070 X0.5958 Y-2.4097
N2075 X0.557 Y-2.406
N2080 X0.5182 Y-2.4024
N2085 X0.4794 Y-2.3984
N2090 X0.4408 Y-2.3932
N2095 X0.4025 Y-2.3854
N2100 X0.369 Y-2.3655
N2105 X0.3433 Y-2.3362
N2110 X0.3242 Y-2.3022
N2115 X0.3102 Y-2.2658
N2120 X0.3003 Y-2.2281
N2125 X0.2931 Y-2.1898
N2130 X0.2881 Y-2.1511
N2135 X0.2845 Y-2.1123
N2140 X0.282 Y-2.0734
N2145 X0.2803 Y-2.0344
N2150 X0.279 Y-1.9955
N2155 X0.2782 Y-1.9565
N2160 X0.2776 Y-1.9175
N2165 X0.2771 Y-1.8785
N2170 X0.2768 Y-1.8395
N2175 X0.2766 Y-1.8005
N2180 X0.2765 Y-1.7615
N2185 X0.2763 Y-1.6836
N2190 X0.2761 Y-1.5421
N2195 X0.276 Y-1.539
N2200 X0.2758 Y-1.5359
N2205 X0.2753 Y-1.5328
N2210 X0.2669 Y-1.4804
N2215 X0.2655 Y-1.4715
N2220 X0.263 Y-1.4538
N2225 X0.2621 Y-1.445
N2230 X0.2593 Y-1.3918
N2235 X0.255 Y-1.3121
N2240 X0.2546 Y-1.3033
N2245 Y-1.2767
N2250 X0.2555 Y-1.259
N2255 X0.2612 Y-1.1527
N2260 X0.2621 Y-1.135
N2265 X0.263 Y-1.1262
N2270 X0.2643 Y-1.1173
N2275 X0.2678 Y-1.0785
N2280 X0.2704 Y-1.0396
N2285 X0.2721 Y-1.0006
N2290 X0.2733 Y-0.9617
N2295 X0.2742 Y-0.9227
N2300 X0.2748 Y-0.8837
N2305 X0.2752 Y-0.8447
N2310 X0.2762 Y-0.7277
N2315 X0.2766 Y-0.6887
N2320 X0.2772 Y-0.6498
N2325 X0.278 Y-0.6108
N2330 X0.2792 Y-0.5718
N2335 X0.2809 Y-0.5328
N2340 X0.2835 Y-0.4939
N2345 X0.2875 Y-0.4552
N2350 X0.2938 Y-0.4167
N2355 X0.3095 Y-0.381
N2360 X0.3362 Y-0.3526
N2365 X0.3686 Y-0.3309
N2370 X0.4041 Y-0.3147
N2375 X0.4412 Y-0.3026
N2380 X0.479 Y-0.2934
N2385 X0.5173 Y-0.2861
N2390 X0.5558 Y-0.2798
N2395 X0.5944 Y-0.2739
N2400 X0.6261 Y-0.2686
N2405 X0.6386 Y-0.2651
N2410 X0.6501 Y-0.2589
N2415 X0.6598 Y-0.2503
N2420 X0.6689 Y-0.2406
N2425 X0.6743 Y-0.235
N2430 X0.7717 Y-0.1407
N2435 X0.7789 Y-0.1343
N2440 X0.7895 Y-0.1253
N2445 X0.7983 Y-0.1181
N2450 X0.8115 Y-0.1078
N2455 G3 X0.8146 Y-0.0726 I-0.0161 J0.0192
N2460 X0.792 Y-0.0646 I-0.018 J-0.0151
N2465 X0.6657 Y-0.2321 I0.0306 J-0.1545
N2470 G2 X0.6598 Y-0.2503 I-0.0249 J-0.0021
N2475 G1 X0.6566 Y-0.2538 F10.26
N2480 X0.6212 Y-0.2963
N2485 X0.6105 Y-0.308
N2490 X0.6 Y-0.3177
N2495 X0.5854 Y-0.3291
N2500 X0.5622 Y-0.3445
N2505 X0.5281 Y-0.3634
N2510 X0.4932 Y-0.3808
N2515 X0.4623 Y-0.4045
N2520 X0.4385 Y-0.4353
N2525 X0.4207 Y-0.4701
N2530 X0.4077 Y-0.5068
N2535 X0.3984 Y-0.5447
N2540 X0.3917 Y-0.5831
N2545 X0.3869 Y-0.6218
N2550 X0.3835 Y-0.6606
N2555 X0.383 Y-0.6686
N2560 X0.3823 Y-0.6746
N2565 X0.381 Y-0.6805
N2570 X0.379 Y-0.6862
N2575 X0.3379 Y-0.7911
N2580 X0.3322 Y-0.8074
N2585 X0.3293 Y-0.8162
N2590 X0.2905 Y-0.9579
N2595 X0.2872 Y-0.9756
N2600 X0.2855 Y-0.9845
N2605 X0.2848 Y-0.989
N2610 X0.2669 Y-1.0996
N2615 X0.2655 Y-1.1085
N2620 X0.2643 Y-1.1173
N2625 G2 X0.2275 Y-1.1348 I-0.0246 J0.0044 F11.4
N2630 G1 X0.2241 Y-1.1329 Z-0.3934
N2635 X0.2207 Y-1.131 Z-0.3925
N2640 X0.2176 Y-1.1293 Z-0.391
N2645 X0.2147 Y-1.1276 Z-0.3889
N2650 X0.2121 Y-1.1262 Z-0.3864
N2655 X0.2098 Y-1.1249 Z-0.3834
N2660 X0.208 Y-1.1239 Z-0.3801
N2665 X0.2067 Y-1.1232 Z-0.3764
N2670 X0.2059 Y-1.1228 Z-0.3726
N2675 X0.2057 Y-1.1226 Z-0.3687
N2680 G0 Z0.2
N2685 G1 X0.246 Y-1.4857 F650.
N2690 G0 Z-0.3437
N2695 G1 Z-0.3687 F11.4
N2700 X0.2462 Y-1.486 Z-0.3726
N2705 X0.2467 Y-1.4867 Z-0.3764
N2710 X0.2477 Y-1.4878 Z-0.3801
N2715 X0.249 Y-1.4894 Z-0.3834
N2720 X0.2507 Y-1.4914 Z-0.3864
N2725 X0.2526 Y-1.4936 Z-0.3889
N2730 X0.2547 Y-1.4962 Z-0.391
N2735 X0.257 Y-1.499 Z-0.3925
N2740 X0.2595 Y-1.5019 Z-0.3934
N2745 X0.262 Y-1.5049 Z-0.3937
N2750 G2 X0.2753 Y-1.5328 I-0.0478 J-0.04
N2755 G1 X0.2848 Y-1.591 F10.26
N2760 X0.2855 Y-1.5955
N2765 X0.2888 Y-1.6132
N2770 X0.2905 Y-1.6221
N2775 X0.3293 Y-1.7638
N2780 X0.3322 Y-1.7726
N2785 X0.3379 Y-1.7889
N2790 X0.3385 Y-1.7903
N2795 X0.3491 Y-1.8219
N2800 X0.3585 Y-1.8597
N2805 X0.365 Y-1.8982
N2810 X0.3698 Y-1.9369
N2815 X0.3735 Y-1.9757
N2820 X0.3801 Y-2.0534
N2825 X0.384 Y-2.0922
N2830 X0.3891 Y-2.1308
N2835 X0.3964 Y-2.1691
N2840 X0.4123 Y-2.2048
N2845 X0.4391 Y-2.233
N2850 X0.4715 Y-2.2547
N2855 X0.5068 Y-2.2712
N2860 X0.5437 Y-2.284
N2865 X0.5812 Y-2.2945
N2870 X0.6191 Y-2.3038
N2875 X0.6236 Y-2.3048
N2880 X0.6354 Y-2.309
N2885 X0.6461 Y-2.3156
N2890 X0.6551 Y-2.3243
N2895 X0.6566 Y-2.3262
N2900 X0.6606 Y-2.3305
N2905 X0.6689 Y-2.3394
N2910 X0.6743 Y-2.345
N2915 X0.7717 Y-2.4393
N2920 X0.7789 Y-2.4457
N2925 X0.7895 Y-2.4547
N2930 X0.7983 Y-2.4619
N2935 X0.816 Y-2.4757
N2940 G2 X0.8246 Y-2.4992 I-0.0161 J-0.0192 F11.4
N2945 X0.7267 Y-2.5454 I-0.0652 J0.0114
N2950 X0.6585 Y-2.349 I0.0776 J0.137
N2955 G3 X0.6551 Y-2.3243 I-0.0232 J0.0094
N2960 G1 X0.5718 Y-2.2243
N2965 X0.5681 Y-2.2197
N2970 X0.5581 Y-2.2066
N2975 X0.5515 Y-2.1977
N2980 X0.4795 Y-2.0897
N2985 X0.4748 Y-2.0826
N2990 X0.4595 Y-2.056
N2995 X0.453 Y-2.0437
N3000 X0.3994 Y-1.9409
N3005 X0.3949 Y-1.932
N3010 X0.3872 Y-1.9143
N3015 X0.3836 Y-1.9055
N3020 X0.3385 Y-1.7903
N3025 G3 X0.3136 Y-1.7753 I-0.0229 J-0.0099
N3030 G1 X0.3097 Y-1.7756 Z-0.3934
N3035 X0.3059 Y-1.7759 Z-0.3925
N3040 X0.3023 Y-1.7762 Z-0.391
N3045 X0.299 Y-1.7764 Z-0.3889
N3050 X0.296 Y-1.7767 Z-0.3864
N3055 X0.2935 Y-1.7769 Z-0.3834
N3060 X0.2914 Y-1.777 Z-0.3801
N3065 X0.2899 Y-1.7771 Z-0.3764
N3070 X0.289 Y-1.7772 Z-0.3726
N3075 X0.2887 Z-0.3687
N3080 G0 Z0.2
N3085 G1 X0.3404 Y-0.726 F650.
N3090 G0 Z-0.3437
N3095 G1 Z-0.3687 F11.4
N3100 X0.3406 Y-0.7258 Z-0.3726
N3105 X0.3413 Y-0.7253 Z-0.3764
N3110 X0.3425 Y-0.7243 Z-0.3801
N3115 X0.3441 Y-0.7231 Z-0.3834
N3120 X0.3461 Y-0.7215 Z-0.3864
N3125 X0.3485 Y-0.7197 Z-0.3889
N3130 X0.3511 Y-0.7176 Z-0.391
N3135 X0.354 Y-0.7154 Z-0.3925
N3140 X0.357 Y-0.7131 Z-0.3934
N3145 X0.3601 Y-0.7107 Z-0.3937
N3150 G3 X0.379 Y-0.6862 I-0.0382 J0.0492
N3155 G1 X0.3836 Y-0.6745
N3160 X0.3872 Y-0.6657
N3165 X0.3949 Y-0.648
N3170 X0.3999 Y-0.6382
N3175 X0.4548 Y-0.5328
N3180 X0.4595 Y-0.524
N3185 X0.4748 Y-0.4974
N3190 X0.4807 Y-0.4886
N3195 X0.5515 Y-0.3823
N3200 X0.5592 Y-0.3719
N3205 X0.5681 Y-0.3603
N3210 X0.5718 Y-0.3557
N3215 X0.6212 Y-0.2963
N3220 G3 X0.6224 Y-0.2674 I-0.0198 J0.0153
N3225 G1 X0.6203 Y-0.2641 Z-0.3934
N3230 X0.6182 Y-0.2609 Z-0.3925
N3235 X0.6162 Y-0.2579 Z-0.391
N3240 X0.6144 Y-0.2551 Z-0.3889
N3245 X0.6128 Y-0.2526 Z-0.3864
N3250 X0.6114 Y-0.2504 Z-0.3834
N3255 X0.6103 Y-0.2487 Z-0.3801
N3260 X0.6094 Y-0.2475 Z-0.3764
N3265 X0.6089 Y-0.2467 Z-0.3726
N3270 X0.6088 Y-0.2464 Z-0.3687
N3275 G0 Z0.2
N3280 G1 X2.4604 Y0.1111 F650.
N3285 G0 Z-0.3437
N3290 G1 Z-0.3687 F11.4
N3295 X2.4605 Y0.1108 Z-0.3726
N3300 X2.4611 Y0.1101 Z-0.3764
N3305 X2.4619 Y0.1089 Z-0.3801
N3310 X2.4631 Y0.1072 Z-0.3834
N3315 X2.4646 Y0.1051 Z-0.3864
N3320 X2.4663 Y0.1027 Z-0.3889
N3325 X2.4682 Y0.0999 Z-0.391
N3330 X2.4703 Y0.097 Z-0.3925
N3335 X2.4725 Y0.0939 Z-0.3934
N3340 X2.4748 Y0.0907 Z-0.3937
N3345 G3 X2.4984 Y0.0707 I0.0509 J0.036
N3350 G1 X2.5161 Y0.0628
N3355 X2.5206 Y0.0605
N3360 X2.5338 Y0.0536
N3365 X2.5374 Y0.0516
N3370 X2.6372 Y-0.0104
N3375 X2.6618 Y-0.024
N3380 X2.6819 Y-0.0331
N3385 X2.7081 Y-0.0425
N3390 X2.744 Y-0.0523
N3395 X2.7823 Y-0.0594
N3400 X2.821 Y-0.0644
N3405 X2.8598 Y-0.0678
N3410 X2.8988 Y-0.0701
N3415 X2.9377 Y-0.0718
N3420 X2.9767 Y-0.0729
N3425 X3.0157 Y-0.0737
N3430 X3.0547 Y-0.0742
N3435 X3.0936 Y-0.0746
N3440 X3.1326 Y-0.0749
N3445 X3.1716 Y-0.0751
N3450 X3.2496 Y-0.0753
N3455 X3.3276
N3460 X3.347 Y-0.0775
N3465 X3.3655 Y-0.0837
N3470 X3.3997 Y-0.1023
N3475 X3.427 Y-0.1302
N3480 X3.4478 Y-0.1632
N3485 X3.4633 Y-0.1989
N3490 X3.4747 Y-0.2362
N3495 X3.483 Y-0.2743
N3500 X3.489 Y-0.3128
N3505 X3.4933 Y-0.3516
N3510 X3.4963 Y-0.3905
N3515 X3.4985 Y-0.4294
N3520 X3.5 Y-0.4684
N3525 X3.5011 Y-0.5073
N3530 X3.5019 Y-0.5463
N3535 X3.5025 Y-0.5853
N3540 X3.5029 Y-0.6243
N3545 X3.5031 Y-0.6633
N3550 X3.5033 Y-0.7023
N3555 X3.5036 Y-0.7803
N3560 X3.5038 Y-0.8972
N3565 X3.5039 Y-1.1702
N3570 X3.504 Y-1.2871
N3575 X3.5043 Y-2.3399
N3580 X3.4997 Y-2.3588
N3585 X3.4834 Y-2.3942
N3590 X3.4569 Y-2.4229
N3595 X3.4247 Y-2.4449
N3600 X3.3894 Y-2.4614
N3605 X3.3523 Y-2.4735
N3610 X3.3144 Y-2.4823
N3615 X3.2759 Y-2.4887
N3620 X3.2372 Y-2.4932
N3625 X3.1983 Y-2.4965
N3630 X3.1594 Y-2.4988
N3635 X3.1204 Y-2.5005
N3640 X3.0815 Y-2.5016
N3645 X3.0425 Y-2.5025
N3650 X3.0035 Y-2.503
N3655 X2.9645 Y-2.5035
N3660 X2.9255 Y-2.5037
N3665 X2.8865 Y-2.504
N3670 X2.8475 Y-2.5041
N3675 X2.7696 Y-2.5043
N3680 X2.7474
N3685 X2.7346 Y-2.5057
N3690 X2.7225 Y-2.5099
N3695 X2.7116 Y-2.5166
N3700 X2.6754 Y-2.5448
N3705 X2.6653 Y-2.5519
N3710 X2.6577 Y-2.5569
N3715 X2.567 Y-2.6132
N3720 G3 X2.556 Y-2.6356 I0.0139 J-0.0208
N3725 X2.6088 Y-2.6764 I0.0444 J0.0029
N3730 X2.703 Y-2.5401 I-0.0221 J0.116
N3735 G2 X2.7116 Y-2.5166 I0.0246 J0.0043
N3740 G1 X2.7685 Y-2.4722 F10.26
N3745 X2.7821 Y-2.4627
N3750 X2.7953 Y-2.4549
N3755 X2.8125 Y-2.4466
N3760 X2.8352 Y-2.4377
N3765 X2.8663 Y-2.4284
N3770 X2.9045 Y-2.4202
N3775 X2.943 Y-2.4146
N3780 X2.9818 Y-2.4105
N3785 X3.0207 Y-2.4075
N3790 X3.0596 Y-2.4049
N3795 X3.0985 Y-2.4025
N3800 X3.1374 Y-2.3999
N3805 X3.1763 Y-2.3967
N3810 X3.215 Y-2.3924
N3815 X3.2535 Y-2.3863
N3820 X3.2725 Y-2.3817
N3825 X3.2908 Y-2.3751
N3830 X3.3234 Y-2.3537
N3835 X3.3474 Y-2.323
N3840 X3.3647 Y-2.288
N3845 X3.3769 Y-2.251
N3850 X3.3854 Y-2.2129
N3855 X3.3913 Y-2.1744
N3860 X3.3954 Y-2.1356
N3865 X3.3982 Y-2.0967
N3870 X3.4001 Y-2.0578
N3875 X3.4014 Y-2.0188
N3880 X3.4023 Y-1.9798
N3885 X3.4029 Y-1.9408
N3890 X3.4033 Y-1.9019
N3895 X3.4035 Y-1.8629
N3900 X3.4037 Y-1.8239
N3905 X3.4038 Y-1.7849
N3910 X3.404 Y-1.7069
N3915 Y-1.5509
N3920 X3.4039 Y-1.0831
N3925 X3.4038 Y-0.9661
N3930 X3.4037 Y-0.8491
N3935 X3.4035 Y-0.7711
N3940 X3.4033 Y-0.7321
N3945 X3.4031 Y-0.6931
N3950 X3.4028 Y-0.6542
N3955 X3.4025 Y-0.6152
N3960 X3.4019 Y-0.5762
N3965 X3.4011 Y-0.5372
N3970 X3.3999 Y-0.4982
N3975 X3.3983 Y-0.4593
N3980 X3.396 Y-0.4203
N3985 X3.3926 Y-0.3815
N3990 X3.3877 Y-0.3428
N3995 X3.3801 Y-0.3046
N4000 X3.3729 Y-0.2865
N4005 X3.3506 Y-0.2545
N4010 X3.3195 Y-0.2309
N4015 X3.2844 Y-0.2139
N4020 X3.2473 Y-0.2019
N4025 X3.2093 Y-0.1935
N4030 X3.1707 Y-0.1875
N4035 X3.132 Y-0.1833
N4040 X3.0931 Y-0.1802
N4045 X3.0542 Y-0.1779
N4050 X3.0152 Y-0.1759
N4055 X2.9763 Y-0.174
N4060 X2.9374 Y-0.172
N4065 X2.8984 Y-0.1695
N4070 X2.8596 Y-0.1663
N4075 X2.8514 Y-0.1654
N4080 X2.8389 Y-0.1626
N4085 X2.8273 Y-0.1572
N4090 X2.8172 Y-0.1493
N4095 X2.8083 Y-0.1407
N4100 X2.8011 Y-0.1343
N4105 X2.7905 Y-0.1253
N4110 X2.7817 Y-0.1181
N4115 X2.6754 Y-0.0352
N4120 X2.6653 Y-0.0281
N4125 X2.6577 Y-0.0231
N4130 X2.6372 Y-0.0104
N4135 G2 X2.6261 Y0.012 I0.0139 J0.0208 F11.4
N4140 X2.7091 Y0.068 I0.0631 J-0.0042
N4145 X2.8112 Y-0.1251 I-0.0492 J-0.1496
N4150 G3 X2.8172 Y-0.1493 I0.024 J-0.0069
N4155 G1 X2.8657 Y-0.1963
N4160 X2.8758 Y-0.2052
N4165 X2.8864 Y-0.2131
N4170 X2.9001 Y-0.2216
N4175 X2.9179 Y-0.2308
N4180 X2.9417 Y-0.2409
N4185 X2.9764 Y-0.2523
N4190 X3.0143 Y-0.2614
N4195 X3.0526 Y-0.2687
N4200 X3.091 Y-0.2752
N4205 X3.1294 Y-0.282
N4210 X3.1675 Y-0.2905
N4215 X3.2022 Y-0.3083
N4220 X3.2294 Y-0.3362
N4225 X3.25 Y-0.3693
N4230 X3.2651 Y-0.4052
N4235 X3.2762 Y-0.4426
N4240 X3.2841 Y-0.4808
N4245 X3.2898 Y-0.5194
N4250 X3.2939 Y-0.5581
N4255 X3.2968 Y-0.597
N4260 X3.2988 Y-0.636
N4265 X3.3003 Y-0.6749
N4270 X3.3013 Y-0.7139
N4275 X3.3021 Y-0.7529
N4280 X3.3026 Y-0.7919
N4285 X3.303 Y-0.8309
N4290 X3.3032 Y-0.8699
N4295 X3.3034 Y-0.9088
N4300 X3.3037 Y-0.9868
N4305 Y-1.0369
N4310 X3.3038 Y-1.04
N4315 X3.3041 Y-1.0431
N4320 X3.3045 Y-1.0461
N4325 X3.3131 Y-1.0996
N4330 X3.3145 Y-1.1085
N4335 X3.317 Y-1.1262
N4340 X3.3179 Y-1.135
N4345 X3.3207 Y-1.1882
N4350 X3.325 Y-1.2679
N4355 X3.3254 Y-1.2767
N4360 Y-1.3033
N4365 X3.3245 Y-1.321
N4370 X3.3188 Y-1.4273
N4375 X3.3179 Y-1.445
N4380 X3.317 Y-1.4538
N4385 X3.3157 Y-1.4627
N4390 X3.3122 Y-1.5015
N4395 X3.3096 Y-1.5404
N4400 X3.3078 Y-1.5794
N4405 X3.3066 Y-1.6183
N4410 X3.3057 Y-1.6573
N4415 X3.3051 Y-1.6963
N4420 X3.3047 Y-1.7353
N4425 X3.3037 Y-1.8523
N4430 X3.3032 Y-1.8913
N4435 X3.3027 Y-1.9302
N4440 X3.3019 Y-1.9692
N4445 X3.3007 Y-2.0082
N4450 X3.299 Y-2.0471
N4455 X3.2964 Y-2.0861
N4460 X3.2924 Y-2.1248
N4465 X3.2862 Y-2.1633
N4470 X3.2708 Y-2.1991
N4475 X3.2442 Y-2.2277
N4480 X3.2118 Y-2.2494
N4485 X3.1764 Y-2.2657
N4490 X3.1393 Y-2.2778
N4495 X3.1015 Y-2.2871
N4500 X3.0632 Y-2.2944
N4505 X3.0247 Y-2.3007
N4510 X2.9861 Y-2.3066
N4515 X2.9534 Y-2.3119
N4520 X2.9409 Y-2.3154
N4525 X2.9294 Y-2.3217
N4530 X2.9196 Y-2.3303
N4535 X2.9111 Y-2.3394
N4540 X2.9057 Y-2.345
N4545 X2.8083 Y-2.4393
N4550 X2.8011 Y-2.4457
N4555 X2.7905 Y-2.4547
N4560 X2.7817 Y-2.4619
N4565 X2.7685 Y-2.4722
N4570 G3 X2.7654 Y-2.5074 I0.0161 J-0.0192
N4575 X2.7891 Y-2.5157 I0.0187 J0.0157
N4580 X2.9138 Y-2.3485 I-0.0322 J0.1541
N4585 G2 X2.9196 Y-2.3303 I0.0249 J0.0021
N4590 G1 X2.9234 Y-2.3262 F10.26
N4595 X2.9588 Y-2.2837
N4600 X2.9689 Y-2.2727
N4605 X2.9794 Y-2.263
N4610 X2.9939 Y-2.2516
N4615 X3.0168 Y-2.2364
N4620 X3.051 Y-2.2175
N4625 X3.0859 Y-2.2001
N4630 X3.117 Y-2.1767
N4635 X3.141 Y-2.1459
N4640 X3.1588 Y-2.1112
N4645 X3.1719 Y-2.0745
N4650 X3.1813 Y-2.0367
N4655 X3.1881 Y-1.9983
N4660 X3.1929 Y-1.9596
N4665 X3.1963 Y-1.9207
N4670 X3.1969 Y-1.9117
N4675 X3.1976 Y-1.9057
N4680 X3.1989 Y-1.8998
N4685 X3.2008 Y-1.8941
N4690 X3.2421 Y-1.7889
N4695 X3.2478 Y-1.7726
N4700 X3.2507 Y-1.7638
N4705 X3.2895 Y-1.6221
N4710 X3.2928 Y-1.6044
N4715 X3.2945 Y-1.5955
N4720 X3.2952 Y-1.591
N4725 X3.3131 Y-1.4804
N4730 X3.3145 Y-1.4715
N4735 X3.3157 Y-1.4627
N4740 G2 X3.3525 Y-1.4452 I0.0246 J-0.0044 F11.4
N4745 G1 X3.3559 Y-1.4471 Z-0.3934
N4750 X3.3593 Y-1.449 Z-0.3925
N4755 X3.3624 Y-1.4507 Z-0.391
N4760 X3.3653 Y-1.4524 Z-0.3889
N4765 X3.3679 Y-1.4538 Z-0.3864
N4770 X3.3702 Y-1.4551 Z-0.3834
N4775 X3.372 Y-1.4561 Z-0.3801
N4780 X3.3733 Y-1.4568 Z-0.3764
N4785 X3.3741 Y-1.4572 Z-0.3726
N4790 X3.3743 Y-1.4574 Z-0.3687
N4795 G0 Z0.2
N4800 G1 X3.3339 Y-1.0932 F650.
N4805 G0 Z-0.3437
N4810 G1 Z-0.3687 F11.4
N4815 X3.3337 Y-1.093 Z-0.3726
N4820 X3.3331 Y-1.0923 Z-0.3764
N4825 X3.3321 Y-1.0911 Z-0.3801
N4830 X3.3308 Y-1.0895 Z-0.3834
N4835 X3.3292 Y-1.0876 Z-0.3864
N4840 X3.3273 Y-1.0853 Z-0.3889
N4845 X3.3251 Y-1.0827 Z-0.391
N4850 X3.3228 Y-1.08 Z-0.3925
N4855 X3.3203 Y-1.077 Z-0.3934
N4860 X3.3178 Y-1.074 Z-0.3937
N4865 G2 X3.3045 Y-1.0461 I0.0478 J0.04
N4870 G1 X3.2952 Y-0.989 F10.26
N4875 X3.2945 Y-0.9845
N4880 X3.2912 Y-0.9668
N4885 X3.2895 Y-0.9579
N4890 X3.2507 Y-0.8162
N4895 X3.2478 Y-0.8074
N4900 X3.2421 Y-0.7911
N4905 X3.2415 Y-0.7897
N4910 X3.2291 Y-0.7527
N4915 X3.2193 Y-0.715
N4920 X3.2119 Y-0.6767
N4925 X3.2059 Y-0.6382
N4930 X3.2003 Y-0.5996
N4935 X3.1943 Y-0.561
N4940 X3.1869 Y-0.5228
N4945 X3.1761 Y-0.4853
N4950 X3.1532 Y-0.4538
N4955 X3.1234 Y-0.4286
N4960 X3.0899 Y-0.4085
N4965 X3.0547 Y-0.3919
N4970 X3.0425 Y-0.387
N4975 X3.0333 Y-0.3823
N4980 X3.025 Y-0.376
N4985 X3.018 Y-0.3684
N4990 X3.0119 Y-0.3603
N4995 X3.0082 Y-0.3557
N5000 X2.9234 Y-0.2538
N5005 X2.9194 Y-0.2495
N5010 X2.9111 Y-0.2406
N5015 X2.9057 Y-0.235
N5020 X2.8657 Y-0.1963
N5025 G2 X2.8597 Y-0.1721 I0.018 J0.0173 F11.4
N5030 X2.9401 Y-0.1359 I0.0556 J-0.016
N5035 X3.0157 Y-0.3435 I-0.0677 J-0.1422
N5040 G3 X3.018 Y-0.3684 I0.0227 J-0.0104
N5045 G1 X3.0219 Y-0.3734
N5050 X3.0285 Y-0.3823
N5055 X3.1005 Y-0.4903
N5060 X3.1052 Y-0.4974
N5065 X3.1205 Y-0.524
N5070 X3.127 Y-0.5363
N5075 X3.1806 Y-0.6391
N5080 X3.1851 Y-0.648
N5085 X3.1928 Y-0.6657
N5090 X3.1964 Y-0.6745
N5095 X3.2415 Y-0.7897
N5100 G3 X3.2664 Y-0.8047 I0.0229 J0.0099
N5105 G1 X3.2703 Y-0.8044 Z-0.3934
N5110 X3.2741 Y-0.8041 Z-0.3925
N5115 X3.2777 Y-0.8038 Z-0.391
N5120 X3.281 Y-0.8036 Z-0.3889
N5125 X3.284 Y-0.8033 Z-0.3864
N5130 X3.2865 Y-0.8031 Z-0.3834
N5135 X3.2886 Y-0.803 Z-0.3801
N5140 X3.2901 Y-0.8029 Z-0.3764
N5145 X3.291 Y-0.8028 Z-0.3726
N5150 X3.2913 Z-0.3687
N5155 G0 Z0.2
N5160 G1 X3.2395 Y-1.8543 F650.
N5165 G0 Z-0.3437
N5170 G1 Z-0.3687 F11.4
N5175 X3.2393 Y-1.8545 Z-0.3726
N5180 X3.2386 Y-1.8551 Z-0.3764
N5185 X3.2374 Y-1.856 Z-0.3801
N5190 X3.2357 Y-1.8573 Z-0.3834
N5195 X3.2337 Y-1.8588 Z-0.3864
N5200 X3.2314 Y-1.8607 Z-0.3889
N5205 X3.2287 Y-1.8627 Z-0.391
N5210 X3.2259 Y-1.8649 Z-0.3925
N5215 X3.2229 Y-1.8673 Z-0.3934
N5220 X3.2198 Y-1.8697 Z-0.3937
N5225 G3 X3.2008 Y-1.8941 I0.0382 J-0.0492
N5230 G1 X3.1964 Y-1.9055
N5235 X3.1928 Y-1.9143
N5240 X3.1851 Y-1.932
N5245 X3.1801 Y-1.9418
N5250 X3.1252 Y-2.0472
N5255 X3.1205 Y-2.056
N5260 X3.1052 Y-2.0826
N5265 X3.0993 Y-2.0914
N5270 X3.0285 Y-2.1977
N5275 X3.0208 Y-2.2081
N5280 X3.0119 Y-2.2197
N5285 X3.0082 Y-2.2243
N5290 X2.9588 Y-2.2837
N5295 X2.9571 Y-2.2861
N5300 X2.9557 Y-2.2887
N5305 X2.955 Y-2.2916 Z-0.3935
N5310 X2.9543 Y-2.2945 Z-0.393
N5315 X2.9536 Y-2.2972 Z-0.3921
N5320 X2.9535 Y-2.299 Z-0.3914
N5325 X2.9541 Y-2.3022 Z-0.3895
N5330 X2.9546 Y-2.3051 Z-0.3872
N5335 X2.9551 Y-2.3076 Z-0.3845
N5340 X2.956 Y-2.3094 Z-0.3817
N5345 X2.9567 Y-2.3108 Z-0.3787
N5350 X2.9572 Y-2.3118 Z-0.3754
N5355 X2.9575 Y-2.3124 Z-0.3721
N5360 X2.9576 Y-2.3126 Z-0.3687
N5365 G0 Z0.2
N5370 G1 X1.9025 Y-1.252 F650.
N5375 G0 Z0.1
N5380 G3 X1.9054 Y-1.2619 Z0.0743 I-0.1125 J-0.038 F11.4
N5385 X1.9074 Y-1.2721 Z0.0486 I-0.1154 J-0.0281
N5390 X1.9085 Y-1.2824 Z0.0229 I-0.1174 J-0.0179
N5395 X1.9087 Y-1.2928 Z-0.0028 I-0.1185 J-0.0076
N5400 X1.908 Y-1.3031 Z-0.0285 I-0.1187 J0.0028
N5405 X1.9064 Y-1.3133 Z-0.0542 I-0.118 J0.0131
N5410 X1.904 Y-1.3234 Z-0.0799 I-0.1164 J0.0233
N5415 X1.9006 Y-1.3332 Z-0.1055 I-0.114 J0.0334
N5420 X1.8964 Y-1.3427 Z-0.1312 I-0.1106 J0.0432
N5425 X1.8914 Y-1.3517 Z-0.1569 I-0.1064 J0.0527
N5430 X1.8857 Y-1.3604 Z-0.1826 I-0.1014 J0.0617
N5435 X1.8792 Y-1.3684 Z-0.2083 I-0.0957 J0.0704
N5440 X1.872 Y-1.3759 Z-0.234 I-0.0892 J0.0784
N5445 X1.8642 Y-1.3827 Z-0.2597 I-0.082 J0.0859
N5450 X1.8558 Y-1.3888 Z-0.2854 I-0.0742 J0.0927
N5455 X1.847 Y-1.3942 Z-0.3111 I-0.0658 J0.0988
N5460 X1.8377 Y-1.3988 Z-0.3368 I-0.057 J0.1042
N5465 X1.828 Y-1.4025 Z-0.3625 I-0.0477 J0.1088
N5470 X1.8181 Y-1.4054 Z-0.3882 I-0.038 J0.1125
N5475 X1.9088 Y-1.29 Z-0.3937 I-0.0281 J0.1154
N5480 X1.6712 I-0.1188 J0.
N5485 X1.9088 I0.1188 J0.
N5490 G1 X1.9089 Y-1.2803
N5495 X1.916 Y-1.2419
N5500 X1.9175 Y-1.2373
N5505 X1.9187 Y-1.2314
N5510 X1.9194 Y-1.2254
N5515 X1.9195 Y-1.2194
N5520 X1.9191 Y-1.213
N5525 X1.9181 Y-1.2062
N5530 X1.9165 Y-1.199
N5535 X1.9142 Y-1.1916
N5540 X1.9112 Y-1.1839
N5545 X1.9073 Y-1.1761
N5550 X1.9026 Y-1.1682
N5555 X1.897 Y-1.1605
N5560 X1.8905 Y-1.1528
N5565 X1.8832 Y-1.1454
N5570 X1.8749 Y-1.1384
N5575 X1.8659 Y-1.1318
N5580 X1.856 Y-1.1258
N5585 X1.8454 Y-1.1205
N5590 X1.8341 Y-1.1159
N5595 X1.8222 Y-1.1121
N5600 X1.8097 Y-1.1092
N5605 X1.7968 Y-1.1073
N5610 X1.7836 Y-1.1065
N5615 X1.7701 Y-1.1067
N5620 X1.7565 Y-1.108
N5625 X1.7428 Y-1.1104
N5630 X1.7293 Y-1.114
N5635 X1.7159 Y-1.1187
N5640 X1.7028 Y-1.1244
N5645 X1.6901 Y-1.1313
N5650 X1.678 Y-1.1392
N5655 X1.6664 Y-1.1482
N5660 X1.6556 Y-1.1581
N5665 X1.6455 Y-1.1688
N5670 X1.6363 Y-1.1804
N5675 X1.628 Y-1.1928
N5680 X1.6207 Y-1.2058
N5685 X1.6144 Y-1.2194
N5690 X1.6093 Y-1.2335
N5695 X1.6053 Y-1.248
N5700 X1.6024 Y-1.2628
N5705 X1.6008 Y-1.2778
N5710 X1.6003 Y-1.2929
N5715 X1.6011 Y-1.308
N5720 X1.6031 Y-1.3231
N5725 X1.6063 Y-1.3379
N5730 X1.6107 Y-1.3524
N5735 X1.6162 Y-1.3666
N5740 X1.6229 Y-1.3802
N5745 X1.6306 Y-1.3933
N5750 X1.6394 Y-1.4058
N5755 X1.6491 Y-1.4175
N5760 X1.6597 Y-1.4284
N5765 X1.6712 Y-1.4384
N5770 X1.6835 Y-1.4474
N5775 X1.6965 Y-1.4555
N5780 X1.71 Y-1.4624
N5785 X1.7241 Y-1.4683
N5790 X1.7386 Y-1.473
N5795 X1.7535 Y-1.4766
N5800 X1.7685 Y-1.4789
N5805 X1.7838 Y-1.48
N5810 X1.799 Y-1.4799
N5815 X1.8142 Y-1.4786
N5820 X1.8293 Y-1.476
N5825 X1.8441 Y-1.4723
N5830 X1.8585 Y-1.4674
N5835 X1.8725 Y-1.4613
N5840 X1.886 Y-1.4541
N5845 X1.8989 Y-1.4459
N5850 X1.911 Y-1.4366
N5855 X1.9224 Y-1.4265
N5860 X1.9329 Y-1.4154
N5865 X1.9425 Y-1.4035
N5870 X1.9512 Y-1.3909
N5875 X1.9638 Y-1.3688
N5880 X1.9777 Y-1.3392
N5885 X1.9862 Y-1.3165
N5890 X1.992 Y-1.2962
N5895 X1.9958 Y-1.2775
N5900 X1.9979 Y-1.2595
N5905 X1.9985 Y-1.242
N5910 X1.9978 Y-1.225
N5915 X1.9958 Y-1.2085
N5920 X1.9924 Y-1.1923
N5925 X1.9878 Y-1.1765
N5930 X1.9819 Y-1.1611
N5935 X1.9748 Y-1.1462
N5940 X1.9665 Y-1.1318
N5945 X1.9569 Y-1.118
N5950 X1.9462 Y-1.1049
N5955 X1.9343 Y-1.0926
N5960 X1.9214 Y-1.0811
N5965 X1.9073 Y-1.0705
N5970 X1.8923 Y-1.061
N5975 X1.8763 Y-1.0526
N5980 X1.8594 Y-1.0455
N5985 X1.8418 Y-1.0396
N5990 X1.8236 Y-1.0351
N5995 X1.8048 Y-1.032
N6000 X1.7856 Y-1.0304
N6005 X1.7662
N6010 X1.7466 Y-1.032
N6015 X1.727 Y-1.0351
N6020 X1.7076 Y-1.0399
N6025 X1.6885 Y-1.0462
N6030 X1.6698 Y-1.0541
N6035 X1.6517 Y-1.0635
N6040 X1.6343 Y-1.0745
N6045 X1.6178 Y-1.0868
N6050 X1.6022 Y-1.1006
N6055 X1.5877 Y-1.1155
N6060 X1.5744 Y-1.1317
N6065 X1.5624 Y-1.149
N6070 X1.5518 Y-1.1672
N6075 X1.5426 Y-1.1863
N6080 X1.535 Y-1.2061
N6085 X1.529 Y-1.2265
N6090 X1.5246 Y-1.2474
N6095 X1.5219 Y-1.2686
N6100 X1.521 Y-1.29
N6105 X1.5217 Y-1.3114
N6110 X1.5242 Y-1.3327
N6115 X1.5283 Y-1.3538
N6120 X1.5342 Y-1.3745
N6125 X1.5417 Y-1.3947
N6130 X1.5508 Y-1.4142
N6135 X1.5615 Y-1.433
N6140 X1.5736 Y-1.4508
N6145 X1.5872 Y-1.4677
N6150 X1.602 Y-1.4833
N6155 X1.6181 Y-1.4978
N6160 X1.6353 Y-1.5109
N6165 X1.6535 Y-1.5226
N6170 X1.6725 Y-1.5328
N6175 X1.6924 Y-1.5415
N6180 X1.7129 Y-1.5485
N6185 X1.7338 Y-1.5539
N6190 X1.7552 Y-1.5575
N6195 X1.7767 Y-1.5595
N6200 X1.7984 Y-1.5597
N6205 X1.82 Y-1.5582
N6210 X1.8414 Y-1.5549
N6215 X1.8625 Y-1.5499
N6220 X1.8831 Y-1.5433
N6225 X1.9031 Y-1.535
N6230 X1.9224 Y-1.5251
N6235 X1.9409 Y-1.5137
N6240 X1.9583 Y-1.5009
N6245 X1.9762 Y-1.4854
N6250 X1.9948 Y-1.4666
N6255 X2.0121 Y-1.4458
N6260 X2.0282 Y-1.4231
N6265 X2.0423 Y-1.3993
N6270 X2.0543 Y-1.3748
N6275 X2.064 Y-1.3502
N6280 X2.0715 Y-1.3254
N6285 X2.0769 Y-1.3007
N6290 X2.0802 Y-1.2761
N6295 X2.0816 Y-1.2516
N6300 X2.0809 Y-1.2274
N6305 X2.0783 Y-1.2036
N6310 X2.0739 Y-1.1801
N6315 X2.0676 Y-1.1573
N6320 X2.0595 Y-1.135
N6325 X2.0497 Y-1.1134
N6330 X2.0382 Y-1.0927
N6335 X2.0249 Y-1.0729
N6340 X2.0101 Y-1.0542
N6345 X1.9937 Y-1.0366
N6350 X1.9758 Y-1.0202
N6355 X1.9566 Y-1.0053
N6360 X1.936 Y-0.9918
N6365 X1.9142 Y-0.9799
N6370 X1.8914 Y-0.9697
N6375 X1.8676 Y-0.9614
N6380 X1.843 Y-0.9548
N6385 X1.8178 Y-0.9503
N6390 X1.7921 Y-0.9478
N6395 X1.7661 Y-0.9473
N6400 X1.74 Y-0.949
N6405 X1.7139 Y-0.9527
N6410 X1.688 Y-0.9586
N6415 X1.6625 Y-0.9666
N6420 X1.6376 Y-0.9766
N6425 X1.6135 Y-0.9887
N6430 X1.5903 Y-1.0028
N6435 X1.5682 Y-1.0187
N6440 X1.5473 Y-1.0365
N6445 X1.5279 Y-1.056
N6450 X1.51 Y-1.077
N6455 X1.4938 Y-1.0995
N6460 X1.4794 Y-1.1232
N6465 X1.467 Y-1.1482
N6470 X1.4565 Y-1.1741
N6475 X1.4482 Y-1.2008
N6480 X1.442 Y-1.2282
N6485 X1.438 Y-1.256
N6490 X1.4362 Y-1.2841
N6495 X1.4368 Y-1.3123
N6500 X1.4395 Y-1.3404
N6505 X1.4446 Y-1.3682
N6510 X1.4518 Y-1.3956
N6515 X1.4613 Y-1.4223
N6520 X1.4728 Y-1.4482
N6525 X1.4865 Y-1.4731
N6530 X1.502 Y-1.4968
N6535 X1.5195 Y-1.5192
N6540 X1.5387 Y-1.5402
N6545 X1.5595 Y-1.5595
N6550 X1.5818 Y-1.5771
N6555 X1.6055 Y-1.5929
N6560 X1.6303 Y-1.6068
N6565 X1.6562 Y-1.6186
N6570 X1.683 Y-1.6282
N6575 X1.7104 Y-1.6358
N6580 X1.7384 Y-1.641
N6585 X1.7667 Y-1.6441
N6590 X1.7952 Y-1.6448
N6595 X1.8236 Y-1.6432
N6600 X1.8519 Y-1.6394
N6605 X1.8797 Y-1.6333
N6610 X1.907 Y-1.625
N6615 X1.9335 Y-1.6146
N6620 X1.9595 Y-1.6018
N6625 X1.9853 Y-1.5865
N6630 X2.0105 Y-1.5685
N6635 X2.035 Y-1.5481
N6640 X2.0582 Y-1.5252
N6645 X2.0798 Y-1.5003
N6650 X2.0993 Y-1.4736
N6655 X2.1167 Y-1.4454
N6660 X2.1316 Y-1.4162
N6665 X2.1441 Y-1.386
N6670 X2.154 Y-1.3552
N6675 X2.1613 Y-1.324
N6680 X2.1661 Y-1.2925
N6685 X2.1683 Y-1.261
N6690 X2.168 Y-1.2297
N6695 X2.1652 Y-1.1986
N6700 X2.1599 Y-1.168
N6705 X2.1522 Y-1.138
N6710 X2.1421 Y-1.1088
N6715 X2.1298 Y-1.0805
N6720 X2.1151 Y-1.0533
N6725 X2.0984 Y-1.0272
N6730 X2.0795 Y-1.0026
N6735 X2.0586 Y-0.9794
N6740 X2.0359 Y-0.9579
N6745 X2.0114 Y-0.9382
N6750 X1.9852 Y-0.9204
N6755 X1.9575 Y-0.9047
N6760 X1.9285 Y-0.8912
N6765 X1.8983 Y-0.88
N6770 X1.8671 Y-0.8712
N6775 X1.8351 Y-0.8649
N6780 X1.8026 Y-0.8612
N6785 X1.7696 Y-0.86
N6790 X1.7365 Y-0.8616
N6795 X1.7035 Y-0.8658
N6800 X1.6707 Y-0.8726
N6805 X1.6384 Y-0.8822
N6810 X1.6068 Y-0.8943
N6815 X1.5762 Y-0.9091
N6820 X1.5468 Y-0.9263
N6825 X1.5187 Y-0.9458
N6830 X1.4921 Y-0.9677
N6835 X1.4673 Y-0.9917
N6840 X1.4445 Y-1.0177
N6845 X1.4238 Y-1.0455
N6850 X1.4053 Y-1.075
N6855 X1.3891 Y-1.1059
N6860 X1.3755 Y-1.1381
N6865 X1.3645 Y-1.1714
N6870 X1.3562 Y-1.2055
N6875 X1.3507 Y-1.2402
N6880 X1.3479 Y-1.2753
N6885 X1.348 Y-1.3106
N6890 X1.3509 Y-1.3458
N6895 X1.3566 Y-1.3807
N6900 X1.3651 Y-1.415
N6905 X1.3764 Y-1.4486
N6910 X1.3903 Y-1.4812
N6915 X1.4068 Y-1.5126
N6920 X1.4258 Y-1.5426
N6925 X1.4471 Y-1.571
N6930 X1.4707 Y-1.5975
N6935 X1.4963 Y-1.6222
N6940 X1.5238 Y-1.6447
N6945 X1.5531 Y-1.6649
N6950 X1.5839 Y-1.6827
N6955 X1.616 Y-1.698
N6960 X1.6493 Y-1.7106
N6965 X1.6834 Y-1.7206
N6970 X1.7183 Y-1.7277
N6975 X1.7536 Y-1.7321
N6980 X1.7892 Y-1.7336
N6985 X1.8248 Y-1.7323
N6990 X1.8602 Y-1.728
N6995 X1.8952 Y-1.721
N7000 X1.9297 Y-1.7111
N7005 X1.9637 Y-1.6983
N7010 X1.9971 Y-1.6826
N7015 X2.0295 Y-1.6641
N7020 X2.061 Y-1.6425
N7025 X2.0911 Y-1.6181
N7030 X2.1193 Y-1.5912
N7035 X2.1453 Y-1.5621
N7040 X2.169 Y-1.5311
N7045 X2.1901 Y-1.4984
N7050 X2.2086 Y-1.464
N7055 X2.2243 Y-1.4283
N7060 X2.2371 Y-1.3915
N7065 X2.247 Y-1.3538
N7070 X2.2538 Y-1.3154
N7075 X2.2575 Y-1.2768
N7080 X2.2581 Y-1.2381
N7085 X2.2556 Y-1.1997
N7090 X2.2501 Y-1.1618
N7095 X2.2415 Y-1.1244
N7100 X2.23 Y-1.088
N7105 X2.2156 Y-1.0526
N7110 X2.1984 Y-1.0184
N7115 X2.1785 Y-0.9858
N7120 X2.156 Y-0.9547
N7125 X2.131 Y-0.9255
N7130 X2.1037 Y-0.8983
N7135 X2.0742 Y-0.8733
N7140 X2.0426 Y-0.8506
N7145 X2.0092 Y-0.8305
N7150 X1.9743 Y-0.8132
N7155 X1.9381 Y-0.7986
N7160 X1.9009 Y-0.787
N7165 X1.8628 Y-0.7784
N7170 X1.8243 Y-0.7728
N7175 X1.7854 Y-0.7702
N7180 X1.7464 Y-0.7707
N7185 X1.7075 Y-0.7741
N7190 X1.6691 Y-0.7806
N7195 X1.6312 Y-0.79
N7200 X1.5942 Y-0.8022
N7205 X1.5582 Y-0.8172
N7210 X1.5235 Y-0.8349
N7215 X1.4902 Y-0.8552
N7220 X1.4585 Y-0.8779
N7225 X1.4286 Y-0.903
N7230 X1.4008 Y-0.9302
N7235 X1.375 Y-0.9595
N7240 X1.3516 Y-0.9907
N7245 X1.3305 Y-1.0235
N7250 X1.3119 Y-1.0577
N7255 X1.2959 Y-1.0933
N7260 X1.2826 Y-1.1299
N7265 X1.272 Y-1.1675
N7270 X1.2642 Y-1.2057
N7275 X1.2591 Y-1.2443
N7280 X1.257 Y-1.2833
N7285 X1.2577 Y-1.3223
N7290 X1.2613 Y-1.3611
N7295 X1.2678 Y-1.3995
N7300 X1.2771 Y-1.4374
N7305 X1.2892 Y-1.4745
N7310 X1.304 Y-1.5105
N7315 X1.3213 Y-1.5455
N7320 X1.3412 Y-1.579
N7325 X1.3634 Y-1.611
N7330 X1.3879 Y-1.6414
N7335 X1.4146 Y-1.6698
N7340 X1.4432 Y-1.6963
N7345 X1.4737 Y-1.7206
N7350 X1.5059 Y-1.7425
N7355 X1.5397 Y-1.762
N7360 X1.5748 Y-1.779
N7365 X1.6111 Y-1.7934
N7370 X1.6483 Y-1.8051
N7375 X1.6862 Y-1.814
N7380 X1.7247 Y-1.8202
N7385 X1.7635 Y-1.8236
N7390 X1.8025 Y-1.8242
N7395 X1.8415 Y-1.8219
N7400 X1.8801 Y-1.8168
N7405 X1.9183 Y-1.8089
N7410 X1.9558 Y-1.7981
N7415 X1.9924 Y-1.7848
N7420 X2.028 Y-1.7688
N7425 X2.0623 Y-1.7504
N7430 X2.0954 Y-1.7297
N7435 X2.127 Y-1.7068
N7440 X2.1568 Y-1.6818
N7445 X2.1849 Y-1.6547
N7450 X2.2111 Y-1.6258
N7455 X2.2353 Y-1.5953
N7460 X2.2575 Y-1.5632
N7465 X2.2775 Y-1.5297
N7470 X2.2952 Y-1.495
N7475 X2.3105 Y-1.4591
N7480 X2.3233 Y-1.4223
N7485 X2.3336 Y-1.3847
N7490 X2.3414 Y-1.3465
N7495 X2.3467 Y-1.3079
N7500 X2.3494 Y-1.269
N7505 X2.3493 Y-1.23
N7510 X2.3465 Y-1.1911
N7515 X2.3411 Y-1.1525
N7520 X2.3331 Y-1.1143
N7525 X2.3225 Y-1.0768
N7530 X2.3094 Y-1.0401
N7535 X2.2938 Y-1.0043
N7540 X2.2758 Y-0.9698
N7545 X2.2554 Y-0.9365
N7550 X2.2327 Y-0.9048
N7555 X2.208 Y-0.8747
N7560 X2.1813 Y-0.8463
N7565 X2.1527 Y-0.8197
N7570 X2.1224 Y-0.7952
N7575 X2.0905 Y-0.7728
N7580 X2.0571 Y-0.7527
N7585 X2.0224 Y-0.7348
N7590 X1.9866 Y-0.7193
N7595 X1.9499 Y-0.7062
N7600 X1.9124 Y-0.6955
N7605 X1.8743 Y-0.6875
N7610 X1.8357 Y-0.682
N7615 X1.7968 Y-0.6791
N7620 X1.7578 Y-0.6787
N7625 X1.7189 Y-0.6808
N7630 X1.6801 Y-0.6855
N7635 X1.6418 Y-0.6927
N7640 X1.6041 Y-0.7024
N7645 X1.567 Y-0.7145
N7650 X1.5308 Y-0.7291
N7655 X1.4956 Y-0.7458
N7660 X1.4616 Y-0.7648
N7665 X1.4288 Y-0.7859
N7670 X1.3975 Y-0.8091
N7675 X1.3677 Y-0.8344
N7680 X1.3397 Y-0.8614
N7685 X1.3134 Y-0.8903
N7690 X1.289 Y-0.9207
N7695 X1.2665 Y-0.9525
N7700 X1.2461 Y-0.9857
N7705 X1.2279 Y-1.0202
N7710 X1.212 Y-1.0558
N7715 X1.1983 Y-1.0923
N7720 X1.1869 Y-1.1296
N7725 X1.1778 Y-1.1675
N7730 X1.1711 Y-1.2059
N7735 X1.1668 Y-1.2447
N7740 X1.165 Y-1.2836
N7745 X1.1657 Y-1.3226
N7750 X1.1689 Y-1.3615
N7755 X1.1744 Y-1.4001
N7760 X1.1824 Y-1.4382
N7765 X1.1926 Y-1.4759
N7770 X1.2053 Y-1.5127
N7775 X1.2203 Y-1.5487
N7780 X1.2375 Y-1.5837
N7785 X1.2569 Y-1.6176
N7790 X1.2782 Y-1.6502
N7795 X1.3016 Y-1.6814
N7800 X1.3268 Y-1.7112
N7805 X1.3538 Y-1.7392
N7810 X1.3826 Y-1.7655
N7815 X1.413 Y-1.7899
N7820 X1.4449 Y-1.8124
N7825 X1.478 Y-1.8329
N7830 X1.5124 Y-1.8513
N7835 X1.5478 Y-1.8676
N7840 X1.5843 Y-1.8815
N7845 X1.6215 Y-1.8931
N7850 X1.6594 Y-1.9024
N7855 X1.6977 Y-1.9093
N7860 X1.7364 Y-1.9139
N7865 X1.7754 Y-1.9162
N7870 X1.8144 Y-1.916
N7875 X1.8533 Y-1.9133
N7880 X1.8919 Y-1.9081
N7885 X1.9302 Y-1.9005
N7890 X1.9679 Y-1.8907
N7895 X2.0049 Y-1.8785
N7900 X2.0412 Y-1.8642
N7905 X2.0765 Y-1.8477
N7910 X2.1108 Y-1.8291
N7915 X2.1438 Y-1.8084
N7920 X2.1756 Y-1.7858
N7925 X2.206 Y-1.7614
N7930 X2.2349 Y-1.7352
N7935 X2.2623 Y-1.7074
N7940 X2.288 Y-1.6781
N7945 X2.312 Y-1.6474
N7950 X2.3316 Y-1.6189
N7955 X2.3331 Y-1.6164
N7960 X2.3505 Y-1.5867
N7965 X2.3554 Y-1.5778
N7970 X2.3673 Y-1.5512
N7975 X2.3712 Y-1.5424
N7980 X2.3787 Y-1.5247
N7985 X2.3832 Y-1.5137
N7990 X2.3921 Y-1.492
N7995 X2.4053 Y-1.4553
N8000 X2.4176 Y-1.4183
N8005 X2.4272 Y-1.3806
N8010 X2.4344 Y-1.3422
N8015 X2.4392 Y-1.3035
N8020 X2.4414 Y-1.2646
N8025 X2.4413 Y-1.2256
N8030 X2.4391 Y-1.1921
N8035 X2.4375 Y-1.1822
N8040 X2.4344 Y-1.1727
N8045 X2.4296 Y-1.1639
N8050 G3 X2.4022 Y-1.1543 I-0.0204 J-0.0145
N8055 G1 X2.3985 Y-1.1554 Z-0.3934
N8060 X2.3948 Y-1.1565 Z-0.3925
N8065 X2.3913 Y-1.1575 Z-0.391
N8070 X2.3881 Y-1.1584 Z-0.3889
N8075 X2.3852 Y-1.1593 Z-0.3864
N8080 X2.3828 Y-1.16 Z-0.3834
N8085 X2.3808 Y-1.1606 Z-0.3801
N8090 X2.3794 Y-1.161 Z-0.3764
N8095 X2.3785 Y-1.1612 Z-0.3726
N8100 X2.3782 Y-1.1613 Z-0.3687
N8105 G0 Z0.2
N8110 G1 X2.3525 Y-1.5309 F650.
N8115 G0 Z-0.3437
N8120 G1 Z-0.3687 F11.4
N8125 X2.3528 Y-1.5307 Z-0.3726
N8130 X2.3535 Y-1.5302 Z-0.3764
N8135 X2.3547 Y-1.5293 Z-0.3801
N8140 X2.3564 Y-1.5281 Z-0.3834
N8145 X2.3584 Y-1.5266 Z-0.3864
N8150 X2.3608 Y-1.5248 Z-0.3889
N8155 X2.3635 Y-1.5228 Z-0.391
N8160 X2.3664 Y-1.5206 Z-0.3925
N8165 X2.3695 Y-1.5184 Z-0.3934
N8170 X2.3726 Y-1.516 Z-0.3937
N8175 G3 X2.3921 Y-1.492 I-0.0371 J0.05
N8180 G1 X2.3933 Y-1.4893
N8185 X2.401 Y-1.4715
N8190 X2.405 Y-1.4627
N8195 X2.4187 Y-1.4342
N8200 X2.4275 Y-1.4193
N8205 X2.4281 Y-1.4184
N8210 X2.4339 Y-1.4096
N8215 X2.4364 Y-1.4061
N8220 X2.4541 Y-1.3825
N8225 X2.4613 Y-1.3741
N8230 X2.4629 Y-1.3724
N8235 X2.4735 Y-1.3602
N8240 X2.481 Y-1.3499
N8245 X2.4885 Y-1.3377
N8250 X2.4963 Y-1.3223
N8255 X2.5034 Y-1.3051
N8260 X2.5069 Y-1.2942
N8265 X2.5093 Y-1.2832
N8270 X2.5095 Y-1.272
N8275 X2.5076 Y-1.2609
N8280 X2.5035 Y-1.2504
N8285 X2.4975 Y-1.2408
N8290 X2.4898 Y-1.2326
N8295 G3 X2.4499 Y-1.2453 I-0.0158 J-0.0193
N8300 G1 X2.4214 Y-1.3479
N8305 G3 X2.4629 Y-1.3724 I0.0241 J-0.0067
N8310 G1 X2.4698 Y-1.3653
N8315 X2.4718 Y-1.3633
N8320 X2.4806 Y-1.3555
N8325 X2.4895 Y-1.3486
N8330 X2.5072 Y-1.3357
N8335 X2.515 Y-1.3299
N8340 X2.5161 Y-1.3289
N8345 X2.5249 Y-1.3216
N8350 X2.5296 Y-1.3178
N8355 X2.5353 Y-1.3099
N8360 X2.539 Y-1.3008
N8365 X2.5402 Y-1.291
N8370 X2.539 Y-1.2813
N8375 X2.5353 Y-1.2722
N8380 X2.5296 Y-1.2643
N8385 X2.522 Y-1.2581
N8390 G3 X2.4793 Y-1.2623 I-0.0184 J-0.0317
N8395 X2.5249 Y-1.3216 I0.0248 J-0.0281
N8400 G1 X2.5426 Y-1.3089
N8405 X2.5455 Y-1.3061
N8410 X2.5476 Y-1.3033
N8415 X2.5489 Y-1.3011
N8420 X2.5499 Y-1.2989
N8425 X2.5507 Y-1.2966
N8430 X2.5512 Y-1.2944
N8435 X2.5515 Y-1.2929
N8440 X2.5517 Y-1.2896
N8445 X2.5515 Y-1.2863
N8450 X2.5514 Y-1.2856
N8455 X2.5509 Y-1.2834
N8460 X2.5502 Y-1.2811
N8465 X2.5493 Y-1.2789
N8470 X2.5481 Y-1.2767
N8475 X2.5458 Y-1.2735
N8480 X2.5442 Y-1.2718
N8485 X2.5426 Y-1.2703
N8490 X2.5393 Y-1.2679
N8495 X2.5338 Y-1.265
N8500 X2.5249 Y-1.2599
N8505 X2.5161 Y-1.2544
N8510 X2.5106 Y-1.2501
N8515 X2.4997 Y-1.2413
N8520 X2.4796 Y-1.2236
N8525 X2.4718 Y-1.2167
N8530 X2.4698 Y-1.2147
N8535 X2.4613 Y-1.2059
N8540 X2.4541 Y-1.1975
N8545 X2.4356 Y-1.1728
N8550 X2.4339 Y-1.1704
N8555 X2.4281 Y-1.1616
N8560 X2.4228 Y-1.1527
N8565 X2.4187 Y-1.1458
N8570 X2.405 Y-1.1173
N8575 X2.4009 Y-1.1085
N8580 X2.3933 Y-1.0907
N8585 X2.3896 Y-1.0819
N8590 X2.3824 Y-1.0642
N8595 X2.3787 Y-1.0553
N8600 X2.3712 Y-1.0376
N8605 X2.3673 Y-1.0288
N8610 X2.3554 Y-1.0022
N8615 X2.3505 Y-0.9933
N8620 X2.3194 Y-0.9402
N8625 X2.3124 Y-0.9299
N8630 X2.3036 Y-0.9184
N8635 X2.2725 Y-0.8782
N8640 X2.2681 Y-0.8734
N8645 X2.2504 Y-0.8544
N8650 X2.215 Y-0.819
N8655 X2.2121 Y-0.8162
N8660 X2.1884 Y-0.7972
N8665 X2.1619 Y-0.7767
N8670 X2.1553 Y-0.7719
N8675 X2.1353 Y-0.7584
N8680 X2.1289 Y-0.7542
N8685 X2.0822 Y-0.7269
N8690 X2.0733 Y-0.7224
N8695 X2.0659 Y-0.7188
N8700 X2.0114 Y-0.6957
N8705 X2.0025 Y-0.692
N8710 X1.9814 Y-0.6834
N8715 X1.9759 Y-0.6811
N8720 X1.9494 Y-0.6686
N8725 X1.9433 Y-0.6657
N8730 X1.9228 Y-0.6549
N8735 X1.914 Y-0.649
N8740 X1.9051 Y-0.6428
N8745 X1.889 Y-0.6327
N8750 X1.8731 Y-0.6245
N8755 X1.8539 Y-0.6163
N8760 X1.8314 Y-0.6089
N8765 X1.8053 Y-0.6026
N8770 X1.7742 Y-0.5976
N8775 X1.754 Y-0.596
N8780 X1.7424 Y-0.5965
N8785 X1.7312 Y-0.5995
N8790 X1.721 Y-0.6049
N8795 X1.7123 Y-0.6125
N8800 G3 X1.7245 Y-0.6553 I0.0171 J-0.0182
N8805 G1 X1.8852 Y-0.6873
N8810 G3 X1.9051 Y-0.6428 I0.0049 J0.0245
N8815 G1 X1.8998 Y-0.6391
N8820 X1.8963 Y-0.6366
N8825 X1.8885 Y-0.6303
N8830 X1.8677 Y-0.6125
N8835 X1.8601 Y-0.6037
N8840 X1.8454 Y-0.586
N8845 X1.8431 Y-0.5829
N8850 X1.8394 Y-0.5783
N8855 X1.833 Y-0.5716
N8860 X1.8262 Y-0.5655
N8865 X1.826 Y-0.5653
N8870 X1.8148 Y-0.5586
N8875 X1.8023 Y-0.5545
N8880 X1.7893 Y-0.5534
N8885 X1.7763 Y-0.5551
N8890 X1.7641 Y-0.5598
N8895 X1.7532 Y-0.567
N8900 X1.7442 Y-0.5765
N8905 G3 X1.762 Y-0.6157 I0.0204 J-0.0144
N8910 G1 X1.8198 Y-0.6217
N8915 G3 X1.8431 Y-0.5829 I0.0026 J0.0249
N8920 G1 X1.8325 Y-0.5683
N8925 X1.825 Y-0.5594
N8930 X1.8182 Y-0.5506
N8935 X1.814 Y-0.5447
N8940 X1.8103 Y-0.5399
N8945 X1.8032 Y-0.5346
N8950 X1.7947 Y-0.5317
N8955 X1.7858 Y-0.5316
N8960 X1.7773 Y-0.5343
N8965 X1.77 Y-0.5395
N8970 X1.7647 Y-0.5466
N8975 G3 X1.7617 Y-0.5614 I0.0283 J-0.0135
N8980 X1.814 Y-0.5447 I0.0285 J0.0011
N8985 G1 X1.8119 Y-0.5417
N8990 X1.8077 Y-0.5363
N8995 X1.8055 Y-0.5344
N9000 X1.8034 Y-0.5328
N9005 X1.7989 Y-0.5305
N9010 X1.7966 Y-0.5297
N9015 X1.7944 Y-0.5291
N9020 X1.7922 Y-0.5288
N9025 X1.79 Y-0.5286
N9030 X1.7878
N9035 X1.7856 Y-0.5289
N9040 X1.7834 Y-0.5293
N9045 X1.7811 Y-0.53
N9050 X1.7782 Y-0.5312
N9055 X1.7753 Y-0.5328
N9060 X1.7723 Y-0.5353
N9065 X1.7694 Y-0.5385
N9070 X1.7673 Y-0.5417
N9075 X1.7634 Y-0.5491
N9080 X1.7626 Y-0.5506
N9085 X1.7571 Y-0.5594
N9090 X1.7437 Y-0.5771
N9095 X1.736 Y-0.586
N9100 X1.7192 Y-0.605
N9105 X1.7123 Y-0.6125
N9110 X1.6915 Y-0.6303
N9115 X1.6837 Y-0.6366
N9120 X1.6802 Y-0.6391
N9125 X1.666 Y-0.649
N9130 X1.6572 Y-0.6549
N9135 X1.6367 Y-0.6657
N9140 X1.6306 Y-0.6686
N9145 X1.6041 Y-0.6811
N9150 X1.5986 Y-0.6834
N9155 X1.5768 Y-0.6922
N9160 X1.5686 Y-0.6956
N9165 X1.5141 Y-0.7188
N9170 X1.5067 Y-0.7224
N9175 X1.4978 Y-0.7269
N9180 X1.4511 Y-0.7542
N9185 X1.4447 Y-0.7584
N9190 X1.4247 Y-0.7719
N9195 X1.4181 Y-0.7767
N9200 X1.3916 Y-0.7972
N9205 X1.3679 Y-0.8162
N9210 X1.365 Y-0.819
N9215 X1.3296 Y-0.8544
N9220 X1.3119 Y-0.8735
N9225 X1.3075 Y-0.8782
N9230 X1.2733 Y-0.9225
N9235 X1.2676 Y-0.93
N9240 X1.2606 Y-0.9402
N9245 X1.2295 Y-0.9933
N9250 X1.2246 Y-1.0022
N9255 X1.2126 Y-1.0288
N9260 X1.2088 Y-1.0376
N9265 X1.2013 Y-1.0553
N9270 X1.1968 Y-1.0663
N9275 X1.1879 Y-1.088
N9280 X1.1867 Y-1.0907
N9285 X1.179 Y-1.1085
N9290 X1.175 Y-1.1173
N9295 X1.1613 Y-1.1458
N9300 X1.1525 Y-1.1607
N9305 X1.1519 Y-1.1616
N9310 X1.1461 Y-1.1704
N9315 X1.1436 Y-1.1739
N9320 X1.1329 Y-1.1882
N9325 X1.1221 Y-1.2042
N9330 X1.1146 Y-1.2175
N9335 X1.1074 Y-1.2332
N9340 X1.1005 Y-1.2518
N9345 X1.0944 Y-1.2738
N9350 X1.0893 Y-1.3001
N9355 X1.0879 Y-1.3123
N9360 X1.0878 Y-1.3235
N9365 X1.0897 Y-1.3344
N9370 X1.0937 Y-1.3448
N9375 X1.0995 Y-1.3542
N9380 X1.1071 Y-1.3624
N9385 G3 X1.1475 Y-1.3483 I0.016 J0.0192
N9390 G1 X1.1768 Y-1.209
N9395 G3 X1.1329 Y-1.1882 I-0.0245 J0.0051
N9400 G1 X1.1259 Y-1.1975
N9405 X1.1187 Y-1.2059
N9410 X1.1102 Y-1.2147
N9415 X1.1082 Y-1.2167
N9420 X1.0994 Y-1.2245
N9425 X1.0905 Y-1.2314
N9430 X1.0769 Y-1.2413
N9435 X1.0687 Y-1.248
N9440 X1.063 Y-1.2535
N9445 X1.0622 Y-1.2543
N9450 X1.0553 Y-1.2643
N9455 X1.0508 Y-1.2755
N9460 X1.0491 Y-1.2876
N9465 X1.0503 Y-1.2997
N9470 X1.0542 Y-1.3111
N9475 X1.0607 Y-1.3214
N9480 X1.0694 Y-1.3299
N9485 G3 X1.1094 Y-1.3133 I0.0151 J0.0199
N9490 G1 X1.1158 Y-1.2653
N9495 G3 X1.0769 Y-1.2413 I-0.0248 J0.0033
N9500 G1 X1.0728 Y-1.2443
N9505 X1.065 Y-1.2501
N9510 X1.0639 Y-1.2511
N9515 X1.0551 Y-1.2584
N9520 X1.0394 Y-1.2697
N9525 X1.0374 Y-1.2711
N9530 X1.0345 Y-1.2739
N9535 X1.0324 Y-1.2767
N9540 X1.0311 Y-1.2789
N9545 X1.0301 Y-1.2811
N9550 X1.0293 Y-1.2834
N9555 X1.0288 Y-1.2856
N9560 X1.0285 Y-1.2871
N9565 X1.0283 Y-1.2904
N9570 X1.0285 Y-1.2937
N9575 X1.0286 Y-1.2944
N9580 X1.0291 Y-1.2966
N9585 X1.0298 Y-1.2989
N9590 X1.0307 Y-1.3011
N9595 X1.0319 Y-1.3033
N9600 X1.0342 Y-1.3065
N9605 X1.0358 Y-1.3082
N9610 X1.0374 Y-1.3097
N9615 X1.0407 Y-1.3121
N9620 X1.0462 Y-1.315
N9625 X1.0551 Y-1.3201
N9630 X1.0639 Y-1.3256
N9635 X1.0694 Y-1.3299
N9640 X1.0803 Y-1.3387
N9645 X1.1004 Y-1.3564
N9650 X1.1082 Y-1.3633
N9655 X1.1102 Y-1.3653
N9660 X1.1187 Y-1.3741
N9665 X1.1259 Y-1.3825
N9670 X1.1436 Y-1.4062
N9675 X1.1461 Y-1.4096
N9680 X1.1519 Y-1.4184
N9685 X1.1572 Y-1.4273
N9690 X1.1613 Y-1.4342
N9695 X1.175 Y-1.4627
N9700 X1.1791 Y-1.4715
N9705 X1.1867 Y-1.4893
N9710 X1.1904 Y-1.4981
N9715 X1.1976 Y-1.5158
N9720 X1.2013 Y-1.5247
N9725 X1.2088 Y-1.5424
N9730 X1.2126 Y-1.5512
N9735 X1.2246 Y-1.5778
N9740 X1.2295 Y-1.5867
N9745 X1.2606 Y-1.6398
N9750 X1.2676 Y-1.65
N9755 X1.2764 Y-1.6616
N9760 X1.3075 Y-1.7018
N9765 X1.3119 Y-1.7065
N9770 X1.3296 Y-1.7256
N9775 X1.365 Y-1.761
N9780 X1.3679 Y-1.7638
N9785 X1.3916 Y-1.7828
N9790 X1.4181 Y-1.8033
N9795 X1.4247 Y-1.8081
N9800 X1.4447 Y-1.8216
N9805 X1.4511 Y-1.8258
N9810 X1.4978 Y-1.8531
N9815 X1.5067 Y-1.8576
N9820 X1.5141 Y-1.8612
N9825 X1.5686 Y-1.8844
N9830 X1.5775 Y-1.888
N9835 X1.5986 Y-1.8966
N9840 X1.6041 Y-1.8989
N9845 X1.6306 Y-1.9114
N9850 X1.6367 Y-1.9143
N9855 X1.6572 Y-1.9251
N9860 X1.666 Y-1.931
N9865 X1.6802 Y-1.9409
N9870 X1.6837 Y-1.9434
N9875 X1.6915 Y-1.9497
N9880 X1.6964 Y-1.9535
N9885 X1.7078 Y-1.9609
N9890 X1.7217 Y-1.9684
N9895 X1.7375 Y-1.9754
N9900 X1.7573 Y-1.9822
N9905 X1.7793 Y-1.9879
N9910 X1.8059 Y-1.9926
N9915 X1.8128 Y-1.9932
N9920 X1.8236
N9925 X1.8342 Y-1.9913
N9930 X1.8442 Y-1.9874
N9935 X1.8534 Y-1.9817
N9940 X1.8613 Y-1.9745
N9945 G3 X1.8472 Y-1.9338 I-0.0191 J0.0162
N9950 G1 X1.7133 Y-1.9068
N9955 G3 X1.6915 Y-1.9497 I-0.0049 J-0.0245
N9960 G1 X1.7123 Y-1.9675
N9965 X1.7199 Y-1.9763
N9970 X1.7346 Y-1.994
N9975 X1.7369 Y-1.9971
N9980 X1.7436 Y-2.0064
N9985 X1.7482 Y-2.012
N9990 X1.7534 Y-2.0176
N9995 X1.7636 Y-2.0248
N10000 X1.7751 Y-2.0294
N10005 X1.7875 Y-2.0312
N10010 X1.7998 Y-2.03
N10015 X1.8116 Y-2.0259
N10020 X1.8221 Y-2.0193
N10025 X1.8307 Y-2.0103
N10030 G3 X1.8121 Y-1.971 I-0.0204 J0.0144
N10035 G1 X1.7663 Y-1.9675
N10040 G3 X1.7436 Y-2.0064 I-0.0019 J-0.0249
N10045 G1 X1.7475 Y-2.0117
N10050 X1.755 Y-2.0206
N10055 X1.7618 Y-2.0294
N10060 X1.7681 Y-2.0383
N10065 X1.7704 Y-2.0413
N10070 X1.7723 Y-2.0437
N10075 X1.7745 Y-2.0456
N10080 X1.7766 Y-2.0472
N10085 X1.7811 Y-2.0495
N10090 X1.7834 Y-2.0503
N10095 X1.7856 Y-2.0509
N10100 X1.7878 Y-2.0512
N10105 X1.79 Y-2.0514
N10110 X1.7922
N10115 X1.7944 Y-2.0511
N10120 X1.7966 Y-2.0507
N10125 X1.7989 Y-2.05
N10130 X1.8018 Y-2.0488
N10135 X1.8047 Y-2.0472
N10140 X1.8077 Y-2.0447
N10145 X1.8106 Y-2.0415
N10150 X1.8127 Y-2.0383
N10155 X1.8166 Y-2.0309
N10160 X1.8174 Y-2.0294
N10165 X1.8229 Y-2.0206
N10170 X1.8363 Y-2.0029
N10175 X1.844 Y-1.994
N10180 X1.8608 Y-1.975
N10185 X1.8677 Y-1.9675
N10190 X1.8885 Y-1.9497
N10195 X1.8963 Y-1.9434
N10200 X1.8998 Y-1.9409
N10205 X1.914 Y-1.931
N10210 X1.9228 Y-1.9251
N10215 X1.9433 Y-1.9143
N10220 X1.9494 Y-1.9114
N10225 X1.9759 Y-1.8989
N10230 X1.9814 Y-1.8966
N10235 X2.0032 Y-1.8878
N10240 X2.0114 Y-1.8843
N10245 X2.0659 Y-1.8612
N10250 X2.0733 Y-1.8576
N10255 X2.0822 Y-1.8531
N10260 X2.1289 Y-1.8258
N10265 X2.1353 Y-1.8216
N10270 X2.1553 Y-1.8081
N10275 X2.1619 Y-1.8033
N10280 X2.1884 Y-1.7828
N10285 X2.2121 Y-1.7638
N10290 X2.215 Y-1.761
N10295 X2.2504 Y-1.7256
N10300 X2.2681 Y-1.7066
N10305 X2.2725 Y-1.7018
N10310 X2.3067 Y-1.6575
N10315 X2.3124 Y-1.6501
N10320 X2.3194 Y-1.6398
N10325 X2.3331 Y-1.6164
N10330 X2.3343 Y-1.6137
N10335 X2.3352 Y-1.6109
N10340 X2.3357 Y-1.6077 Z-0.3935
N10345 X2.3361 Y-1.6046 Z-0.3929
N10350 X2.3355 Y-1.6015 Z-0.3918
N10355 X2.335 Y-1.5986 Z-0.3903
N10360 X2.3345 Y-1.5959 Z-0.3885
N10365 X2.3333 Y-1.5938 Z-0.3863
N10370 X2.3322 Y-1.592 Z-0.3839
N10375 X2.3313 Y-1.5905 Z-0.3812
N10380 X2.3306 Y-1.5892 Z-0.3783
N10385 X2.3301 Y-1.5883 Z-0.3753
N10390 X2.3296 Y-1.5878 Z-0.372
N10395 X2.3295 Y-1.5877 Z-0.3687
N10400 G0 Z0.2
N10405 G1 X1.5934 Y-0.8617 F650.
N10410 G0 Z-0.3043
N10415 G1 Z-0.3293 F11.4
N10420 Y-0.8614 Z-0.3332
N10425 X1.5933 Y-0.8605 Z-0.3371
N10430 X1.5931 Y-0.859 Z-0.3407
N10435 X1.5928 Y-0.857 Z-0.344
N10440 X1.5925 Y-0.8545 Z-0.347
N10445 X1.5921 Y-0.8515 Z-0.3496
N10450 X1.5917 Y-0.8482 Z-0.3516
N10455 X1.5913 Y-0.8446 Z-0.3531
N10460 X1.5908 Y-0.8408 Z-0.354
N10465 X1.5903 Y-0.8369 Z-0.3543
N10470 G3 X1.5586 Y-0.7031 I-0.6333 J-0.0795
N10475 G1 X1.5564 Y-0.6975
N10480 X1.552 Y-0.6935
N10485 X1.547 Y-0.6901
N10490 X1.5417 Y-0.6873
N10495 X1.5362 Y-0.685
N10500 X1.5294 Y-0.6827
N10505 X1.5209 Y-0.6807
N10510 X1.516 Y-0.68
N10515 X1.5038 Y-0.6793
N10520 X1.4918 Y-0.6813
N10525 X1.4804 Y-0.6857
N10530 X1.4624 Y-0.6952
N10535 X1.4535 Y-0.7
N10540 X1.4517 Y-0.7011
N10545 X1.4227 Y-0.7188
N10550 X1.4093 Y-0.7278
N10555 X1.3916 Y-0.7398
N10560 X1.373 Y-0.7542
N10565 X1.365 Y-0.7606
N10570 X1.362 Y-0.7631
N10575 X1.3384 Y-0.7829
N10580 X1.3308 Y-0.7897
N10585 X1.303 Y-0.8175
N10590 X1.2957 Y-0.8251
N10595 X1.2764 Y-0.846
N10600 X1.2715 Y-0.8516
N10605 X1.2644 Y-0.8605
N10610 X1.2499 Y-0.8784
N10615 X1.241 Y-0.8899
N10620 X1.2367 Y-0.8959
N10625 X1.2307 Y-0.9048
N10630 X1.2249 Y-0.9136
N10635 X1.2135 Y-0.9313
N10640 X1.2078 Y-0.9402
N10645 X1.193 Y-0.9668
N10650 X1.1879 Y-0.9763
N10655 X1.179 Y-0.9935
N10660 X1.1751 Y-1.0022
N10665 X1.1613 Y-1.0371
N10670 X1.1525 Y-1.0593
N10675 X1.1504 Y-1.0642
N10680 X1.1463 Y-1.073
N10685 X1.1348 Y-1.0957
N10690 X1.1259 Y-1.1129
N10695 X1.1236 Y-1.1173
N10700 X1.1179 Y-1.1262
N10705 X1.1082 Y-1.1391
N10710 X1.1043 Y-1.1439
N10715 X1.0883 Y-1.1616
N10720 X1.0816 Y-1.1689
N10725 X1.0802 Y-1.1704
N10730 X1.0712 Y-1.1793
N10735 X1.0639 Y-1.1863
N10740 X1.0551 Y-1.1935
N10745 X1.0505 Y-1.197
N10750 X1.0369 Y-1.2059
N10755 X1.0228 Y-1.2147
N10760 X1.0141 Y-1.2208
N10765 X1.0086 Y-1.2253
N10770 X1.0037 Y-1.2301
N10775 X0.9992 Y-1.2353
N10780 X0.9951 Y-1.2407
N10785 X0.9916 Y-1.2463
N10790 X0.9886 Y-1.2521
N10795 X0.9861 Y-1.258
N10800 X0.9842 Y-1.264
N10805 X0.9826 Y-1.2702
N10810 X0.9817 Y-1.2763
N10815 X0.9812 Y-1.2825
N10820 Y-1.2886
N10825 X0.9817 Y-1.2948
N10830 X0.9827 Y-1.3009
N10835 X0.9853 Y-1.3111
N10840 X0.9902 Y-1.3257
N10845 X0.9941 Y-1.3348
N10850 X1. Y-1.3454
N10855 X1.0081 Y-1.3546
N10860 X1.0178 Y-1.3619
N10865 X1.0383 Y-1.3741
N10870 X1.051 Y-1.383
N10875 X1.0639 Y-1.3942
N10880 X1.0728 Y-1.4024
N10885 X1.0816 Y-1.4106
N10890 X1.0905 Y-1.4196
N10895 X1.0972 Y-1.4273
N10900 X1.1046 Y-1.4361
N10905 X1.1082 Y-1.4409
N10910 X1.1177 Y-1.4538
N10915 X1.1239 Y-1.4627
N10920 X1.1259 Y-1.4662
N10925 X1.138 Y-1.4893
N10930 X1.1423 Y-1.4981
N10935 X1.1464 Y-1.507
N10940 X1.1504 Y-1.5158
N10945 X1.1525 Y-1.5207
N10950 X1.1647 Y-1.5512
N10955 X1.1751 Y-1.5778
N10960 X1.1791 Y-1.5867
N10965 X1.1883 Y-1.6044
N10970 X1.193 Y-1.6132
N10975 X1.2078 Y-1.6398
N10980 X1.2233 Y-1.6639
N10985 X1.2249 Y-1.6664
N10990 X1.2322 Y-1.6774
N10995 X1.2367 Y-1.6841
N11000 X1.241 Y-1.6901
N11005 X1.2501 Y-1.7018
N11010 X1.2676 Y-1.7235
N11015 X1.2715 Y-1.7284
N11020 X1.2764 Y-1.734
N11025 X1.2957 Y-1.7549
N11030 X1.303 Y-1.7625
N11035 X1.3308 Y-1.7903
N11040 X1.3384 Y-1.7971
N11045 X1.362 Y-1.8169
N11050 X1.365 Y-1.8194
N11055 X1.3738 Y-1.8264
N11060 X1.3916 Y-1.8402
N11065 X1.4094 Y-1.8523
N11070 X1.4227 Y-1.8612
N11075 X1.4517 Y-1.8789
N11080 X1.4535 Y-1.88
N11085 X1.4624 Y-1.8848
N11090 X1.4801 Y-1.8942
N11095 X1.4849 Y-1.8966
N11100 X1.5067 Y-1.9062
N11105 X1.5155 Y-1.9101
N11110 X1.5421 Y-1.9206
N11115 X1.5509 Y-1.9243
N11120 X1.5694 Y-1.932
N11125 X1.5775 Y-1.9359
N11130 X1.5952 Y-1.945
N11135 X1.6041 Y-1.9497
N11140 X1.6218 Y-1.9597
N11145 X1.6306 Y-1.965
N11150 X1.6339 Y-1.9675
N11155 X1.6395 Y-1.972
N11160 X1.6544 Y-1.9852
N11165 X1.666 Y-1.9957
N11170 X1.6749 Y-2.0043
N11175 X1.6824 Y-2.0117
N11180 X1.6837 Y-2.0132
N11185 X1.6926 Y-2.0235
N11190 X1.7025 Y-2.0383
N11195 X1.7103 Y-2.0501
N11200 X1.7139 Y-2.056
N11205 X1.719 Y-2.0637
N11210 X1.7234 Y-2.0694
N11215 X1.7282 Y-2.0746
N11220 X1.7333 Y-2.0793
N11225 X1.7387 Y-2.0835
N11230 X1.7443 Y-2.0872
N11235 X1.75 Y-2.0904
N11240 X1.756 Y-2.0931
N11245 X1.7621 Y-2.0953
N11250 X1.7681 Y-2.0969
N11255 X1.7744 Y-2.0981
N11260 X1.7805 Y-2.0987
N11265 X1.7868 Y-2.0988
N11270 X1.7928 Y-2.0985
N11275 X1.7989 Y-2.0976
N11280 X1.8077 Y-2.0957
N11285 X1.8212 Y-2.0915
N11290 X1.8336 Y-2.0866
N11295 X1.8451 Y-2.0804
N11300 X1.8549 Y-2.0719
N11305 X1.8626 Y-2.0614
N11310 X1.8697 Y-2.0491
N11315 X1.871 Y-2.0472
N11320 X1.8833 Y-2.0294
N11325 X1.8874 Y-2.0237
N11330 X1.8963 Y-2.0138
N11335 X1.8981 Y-2.0117
N11340 X1.9065 Y-2.0029
N11345 X1.914 Y-1.9951
N11350 X1.9241 Y-1.9852
N11355 X1.9353 Y-1.9763
N11360 X1.9405 Y-1.9722
N11365 X1.9468 Y-1.9675
N11370 X1.9494 Y-1.9656
N11375 X1.9582 Y-1.9598
N11380 X1.9759 Y-1.9488
N11385 X1.9848 Y-1.944
N11390 X2.0025 Y-1.9357
N11395 X2.0114 Y-1.9317
N11400 X2.0316 Y-1.9232
N11405 X2.0379 Y-1.9206
N11410 X2.0645 Y-1.9101
N11415 X2.0822 Y-1.9023
N11420 X2.0951 Y-1.8966
N11425 X2.0999 Y-1.8942
N11430 X2.1176 Y-1.8848
N11435 X2.1265 Y-1.88
N11440 X2.1283 Y-1.8789
N11445 X2.1573 Y-1.8612
N11450 X2.1707 Y-1.8522
N11455 X2.1884 Y-1.8402
N11460 X2.207 Y-1.8258
N11465 X2.215 Y-1.8194
N11470 X2.218 Y-1.8169
N11475 X2.2416 Y-1.7971
N11480 X2.2492 Y-1.7903
N11485 X2.277 Y-1.7625
N11490 X2.2843 Y-1.7549
N11495 X2.3036 Y-1.734
N11500 X2.3085 Y-1.7284
N11505 X2.3156 Y-1.7195
N11510 X2.3301 Y-1.7016
N11515 X2.339 Y-1.6901
N11520 X2.3433 Y-1.6841
N11525 X2.3493 Y-1.6752
N11530 X2.3551 Y-1.6664
N11535 X2.3665 Y-1.6487
N11540 X2.3722 Y-1.6398
N11545 X2.387 Y-1.6132
N11550 X2.3921 Y-1.6037
N11555 X2.401 Y-1.5865
N11560 X2.4049 Y-1.5778
N11565 X2.4187 Y-1.5429
N11570 X2.4275 Y-1.5207
N11575 X2.4296 Y-1.5158
N11580 X2.4337 Y-1.507
N11585 X2.4452 Y-1.4843
N11590 X2.4541 Y-1.4671
N11595 X2.4564 Y-1.4627
N11600 X2.4621 Y-1.4538
N11605 X2.4718 Y-1.4409
N11610 X2.4757 Y-1.4361
N11615 X2.4917 Y-1.4184
N11620 X2.4984 Y-1.4111
N11625 X2.4998 Y-1.4096
N11630 X2.5088 Y-1.4007
N11635 X2.5161 Y-1.3937
N11640 X2.5249 Y-1.3865
N11645 X2.5295 Y-1.383
N11650 X2.5431 Y-1.3741
N11655 X2.5572 Y-1.3653
N11660 X2.5659 Y-1.3592
N11665 X2.5714 Y-1.3547
N11670 X2.5763 Y-1.3499
N11675 X2.5808 Y-1.3447
N11680 X2.5849 Y-1.3393
N11685 X2.5884 Y-1.3337
N11690 X2.5914 Y-1.3279
N11695 X2.5939 Y-1.322
N11700 X2.5958 Y-1.316
N11705 X2.5974 Y-1.3098
N11710 X2.5983 Y-1.3037
N11715 X2.5988 Y-1.2975
N11720 Y-1.2914
N11725 X2.5983 Y-1.2852
N11730 X2.5973 Y-1.2791
N11735 X2.5947 Y-1.2689
N11740 X2.5898 Y-1.2543
N11745 X2.5859 Y-1.2452
N11750 X2.58 Y-1.2346
N11755 X2.5719 Y-1.2254
N11760 X2.5622 Y-1.2181
N11765 X2.5417 Y-1.2059
N11770 X2.529 Y-1.197
N11775 X2.5161 Y-1.1858
N11780 X2.5072 Y-1.1776
N11785 X2.4984 Y-1.1694
N11790 X2.4895 Y-1.1604
N11795 X2.4828 Y-1.1527
N11800 X2.4754 Y-1.1439
N11805 X2.4718 Y-1.1391
N11810 X2.4623 Y-1.1262
N11815 X2.4561 Y-1.1173
N11820 X2.4541 Y-1.1138
N11825 X2.442 Y-1.0907
N11830 X2.4377 Y-1.0819
N11835 X2.4336 Y-1.073
N11840 X2.4296 Y-1.0642
N11845 X2.4275 Y-1.0593
N11850 X2.4153 Y-1.0288
N11855 X2.4049 Y-1.0022
N11860 X2.4009 Y-0.9933
N11865 X2.3917 Y-0.9756
N11870 X2.387 Y-0.9668
N11875 X2.3722 Y-0.9402
N11880 X2.3567 Y-0.9161
N11885 X2.3551 Y-0.9136
N11890 X2.3478 Y-0.9026
N11895 X2.3433 Y-0.8959
N11900 X2.339 Y-0.8899
N11905 X2.3299 Y-0.8782
N11910 X2.3124 Y-0.8565
N11915 X2.3085 Y-0.8516
N11920 X2.3036 Y-0.846
N11925 X2.2843 Y-0.8251
N11930 X2.277 Y-0.8175
N11935 X2.2492 Y-0.7897
N11940 X2.2416 Y-0.7829
N11945 X2.218 Y-0.7631
N11950 X2.215 Y-0.7606
N11955 X2.2062 Y-0.7536
N11960 X2.1884 Y-0.7398
N11965 X2.1706 Y-0.7277
N11970 X2.1573 Y-0.7188
N11975 X2.1283 Y-0.7011
N11980 X2.1265 Y-0.7
N11985 X2.1176 Y-0.6952
N11990 X2.0999 Y-0.6858
N11995 X2.0951 Y-0.6834
N12000 X2.0733 Y-0.6738
N12005 X2.0645 Y-0.6699
N12010 X2.0379 Y-0.6594
N12015 X2.0291 Y-0.6557
N12020 X2.0106 Y-0.648
N12025 X2.0025 Y-0.6441
N12030 X1.9848 Y-0.635
N12035 X1.9759 Y-0.6303
N12040 X1.9582 Y-0.6203
N12045 X1.9494 Y-0.615
N12050 X1.9461 Y-0.6125
N12055 X1.9405 Y-0.608
N12060 X1.9256 Y-0.5948
N12065 X1.914 Y-0.5843
N12070 X1.9051 Y-0.5757
N12075 X1.8976 Y-0.5683
N12080 X1.8963 Y-0.5668
N12085 X1.8874 Y-0.5565
N12090 X1.8775 Y-0.5417
N12095 X1.8697 Y-0.5299
N12100 X1.8661 Y-0.524
N12105 X1.861 Y-0.5163
N12110 X1.8566 Y-0.5106
N12115 X1.8518 Y-0.5054
N12120 X1.8467 Y-0.5007
N12125 X1.8413 Y-0.4965
N12130 X1.8357 Y-0.4928
N12135 X1.83 Y-0.4896
N12140 X1.824 Y-0.4869
N12145 X1.8179 Y-0.4847
N12150 X1.8119 Y-0.4831
N12155 X1.8056 Y-0.4819
N12160 X1.7995 Y-0.4813
N12165 X1.7932 Y-0.4812
N12170 X1.7872 Y-0.4815
N12175 X1.7811 Y-0.4824
N12180 X1.7723 Y-0.4843
N12185 X1.7588 Y-0.4885
N12190 X1.7464 Y-0.4934
N12195 X1.7349 Y-0.4996
N12200 X1.7251 Y-0.5081
N12205 X1.7174 Y-0.5186
N12210 X1.7103 Y-0.5309
N12215 X1.709 Y-0.5328
N12220 X1.6967 Y-0.5506
N12225 X1.6926 Y-0.5563
N12230 X1.6837 Y-0.5662
N12235 X1.6819 Y-0.5683
N12240 X1.6735 Y-0.5771
N12245 X1.666 Y-0.5849
N12250 X1.6559 Y-0.5948
N12255 X1.6447 Y-0.6037
N12260 X1.6395 Y-0.6078
N12265 X1.6332 Y-0.6125
N12270 X1.6306 Y-0.6144
N12275 X1.6218 Y-0.6202
N12280 X1.6041 Y-0.6312
N12285 X1.5952 Y-0.636
N12290 X1.5775 Y-0.6443
N12295 X1.5686 Y-0.6483
N12300 X1.5484 Y-0.6568
N12305 X1.5421 Y-0.6594
N12310 X1.5155 Y-0.6699
N12315 X1.4978 Y-0.6777
N12320 X1.4849 Y-0.6834
N12325 X1.4804 Y-0.6857
N12330 G3 X1.4679 Y-0.7119 I0.0122 J-0.0218
N12335 G1 X1.4686 Y-0.7157 Z-0.354
N12340 X1.4693 Y-0.7195 Z-0.3531
N12345 X1.4699 Y-0.723 Z-0.3516
N12350 X1.4705 Y-0.7263 Z-0.3496
N12355 X1.471 Y-0.7293 Z-0.347
N12360 X1.4715 Y-0.7318 Z-0.344
N12365 X1.4718 Y-0.7338 Z-0.3407
N12370 X1.4721 Y-0.7353 Z-0.3371
N12375 X1.4722 Y-0.7362 Z-0.3332
N12380 X1.4723 Y-0.7365 Z-0.3293
N12385 G0 Z0.2
N12390 G1 X1.8737 Y-0.579 F650.
N12395 G0 Z-0.3043
N12400 G1 Z-0.3293 F11.4
N12405 Y-0.5787 Z-0.3332
N12410 Y-0.5777 Z-0.3371
N12415 Y-0.5762 Z-0.3407
N12420 Y-0.5742 Z-0.344
N12425 Y-0.5716 Z-0.347
N12430 Y-0.5687 Z-0.3496
N12435 Y-0.5653 Z-0.3516
N12440 Y-0.5617 Z-0.3531
N12445 Y-0.5579 Z-0.354
N12450 Y-0.554 Z-0.3543
N12455 G3 X1.8661 Y-0.524 I-0.0623 J0.0001
N12460 G1 X1.8557 Y-0.5063
N12465 X1.852 Y-0.4995
N12470 X1.8437 Y-0.4797
N12475 X1.8411 Y-0.4743
N12480 X1.838 Y-0.4692
N12485 X1.8344 Y-0.4644
N12490 X1.8303 Y-0.46
N12495 X1.8258 Y-0.456
N12500 X1.821 Y-0.4524
N12505 X1.8151 Y-0.4488
N12510 X1.8088 Y-0.4455
N12515 X1.7966 Y-0.442
N12520 X1.784 Y-0.4415
N12525 X1.7716 Y-0.4439
N12530 X1.7601 Y-0.4492
N12535 X1.7501 Y-0.4569
N12540 X1.7423 Y-0.4668
N12545 X1.7369 Y-0.4783
N12550 X1.728 Y-0.4995
N12555 X1.7245 Y-0.5063
N12560 X1.7174 Y-0.5186
N12565 G3 X1.7183 Y-0.5436 I0.0221 J-0.0117
N12570 X1.753 Y-0.537 I0.0161 J0.0101
N12575 X1.7428 Y-0.5026 I-0.0387 J0.0073
N12580 G2 X1.7369 Y-0.4783 I0.0181 J0.0173
N12585 G1 X1.7457 Y-0.4518 F10.26
N12590 X1.748 Y-0.4443
N12595 X1.7484 Y-0.4428
N12600 X1.7502 Y-0.4371
N12605 X1.7529 Y-0.4317
N12610 X1.7565 Y-0.4267
N12615 X1.7644 Y-0.4198
N12620 X1.7738 Y-0.4149
N12625 X1.784 Y-0.4124
N12630 X1.7945 Y-0.4123
N12635 X1.8048 Y-0.4146
N12640 X1.8143 Y-0.4193
N12645 X1.8223 Y-0.4261
N12650 X1.8286 Y-0.4346
N12655 X1.8327 Y-0.4443
N12660 X1.8354 Y-0.4531
N12665 X1.8418 Y-0.474
N12670 X1.8431 Y-0.4784
N12675 X1.8437 Y-0.4797
N12680 G2 X1.8397 Y-0.5044 I-0.0234 J-0.0089 F11.4
N12685 X1.8141 Y-0.4945 I-0.0112 J0.0091
N12690 X1.8259 Y-0.4683 I0.0393 J-0.002
N12695 G3 X1.8327 Y-0.4443 I-0.0175 J0.0179
N12700 G1 X1.8276 Y-0.4266
N12705 X1.8254 Y-0.419
N12710 X1.825 Y-0.4163
N12715 X1.8238 Y-0.4104
N12720 X1.8216 Y-0.4048
N12725 X1.8153 Y-0.3972
N12730 X1.8073 Y-0.3916
N12735 X1.798 Y-0.3883
N12740 X1.7882 Y-0.3876
N12745 X1.7786 Y-0.3896
N12750 X1.7698 Y-0.3941
N12755 X1.7626 Y-0.4008
N12760 X1.7574 Y-0.4091
N12765 X1.7547 Y-0.4186
N12770 X1.7545 Y-0.4226
N12775 X1.7549 Y-0.4266
N12780 G3 X1.825 Y-0.4163 I0.0349 J0.0063
N12785 G1 X1.8226 Y-0.4
N12790 X1.8213 Y-0.3912
N12795 X1.8204 Y-0.3852
N12800 X1.8181 Y-0.3797
N12805 X1.8115 Y-0.3724
N12810 X1.803 Y-0.3674
N12815 X1.7934 Y-0.3652
N12820 X1.7836 Y-0.3659
N12825 X1.7744 Y-0.3694
N12830 X1.7667 Y-0.3756
N12835 X1.7612 Y-0.3837
N12840 X1.7584 Y-0.3932
N12845 X1.7583 Y-0.3958
N12850 X1.7586 Y-0.3985
N12855 G3 X1.8213 Y-0.3912 I0.0312 J0.0054
N12860 G1 X1.8191 Y-0.3686
N12865 X1.8182 Y-0.3626
N12870 X1.8159 Y-0.3571
N12875 X1.8096 Y-0.3504
N12880 X1.8015 Y-0.3459
N12885 X1.7925 Y-0.344
N12890 X1.7833 Y-0.3449
N12895 X1.7748 Y-0.3485
N12900 X1.7678 Y-0.3545
N12905 X1.7629 Y-0.3624
N12910 X1.7606 Y-0.3713
N12915 Y-0.3731
N12920 X1.7608 Y-0.375
N12925 G3 X1.8191 Y-0.3686 I0.029 J0.0046
N12930 G1 X1.8179 Y-0.3557
N12935 X1.8174 Y-0.3487
N12940 X1.8167 Y-0.3427
N12945 X1.8147 Y-0.3371
N12950 X1.8088 Y-0.3305
N12955 X1.8011 Y-0.326
N12960 X1.7925 Y-0.3241
N12965 X1.7837 Y-0.325
N12970 X1.7756 Y-0.3285
N12975 X1.7689 Y-0.3344
N12980 X1.7644 Y-0.342
N12985 X1.7624 Y-0.3506
N12990 X1.7625 Y-0.3526
N12995 G3 X1.8174 Y-0.3487 I0.0274 J0.003
N13000 G1 X1.8173 Y-0.3469
N13005 X1.817 Y-0.338
N13010 X1.8166 Y-0.3354
N13015 X1.8157 Y-0.3323
N13020 X1.8143 Y-0.3292
N13025 X1.8131 Y-0.3272
N13030 X1.8117 Y-0.3252
N13035 X1.8097 Y-0.323
N13040 X1.8077 Y-0.3212
N13045 X1.8066 Y-0.3203
N13050 X1.8046 Y-0.319
N13055 X1.8027 Y-0.3179
N13060 X1.7989 Y-0.3164
N13065 X1.7966 Y-0.3159
N13070 X1.7944 Y-0.3155
N13075 X1.79 Y-0.3154
N13080 X1.7856 Y-0.3155
N13085 X1.7834 Y-0.3159
N13090 X1.7811 Y-0.3164
N13095 X1.7773 Y-0.3179
N13100 X1.7754 Y-0.319
N13105 X1.7734 Y-0.3203
N13110 X1.7723 Y-0.3212
N13115 X1.7703 Y-0.323
N13120 X1.7683 Y-0.3252
N13125 X1.7669 Y-0.3272
N13130 X1.7657 Y-0.3292
N13135 X1.7643 Y-0.3323
N13140 X1.7634 Y-0.3354
N13145 X1.763 Y-0.338
N13150 X1.7627 Y-0.3469
N13155 X1.7621 Y-0.3557
N13160 X1.7613 Y-0.3646
N13165 X1.7587 Y-0.3912
N13170 X1.7574 Y-0.4
N13175 X1.7546 Y-0.419
N13180 X1.7527 Y-0.4266
N13185 X1.7484 Y-0.4428
N13190 G0 Z0.2
N13195 G1 X2.5025 Y-1.3742 F650.
N13200 G0 Z-0.3043
N13205 G1 Z-0.3293 F11.4
N13210 X2.5028 Z-0.3332
N13215 X2.5037 Z-0.3371
N13220 X2.5052 Z-0.3407
N13225 X2.5072 Y-1.3741 Z-0.344
N13230 X2.5098 Z-0.347
N13235 X2.5128 Y-1.374 Z-0.3496
N13240 X2.5161 Y-1.3739 Z-0.3516
N13245 X2.5197 Y-1.3738 Z-0.3531
N13250 X2.5235 Y-1.3737 Z-0.354
N13255 X2.5274 Y-1.3736 Z-0.3543
N13260 G3 X2.5572 Y-1.3653 I-0.0015 J0.0623
N13265 G1 X2.5692 Y-1.3578
N13270 X2.5715 Y-1.3564
N13275 X2.5958 Y-1.3452
N13280 X2.5984 Y-1.3443
N13285 X2.604 Y-1.3422
N13290 X2.6093 Y-1.3394
N13295 X2.6142 Y-1.3359
N13300 X2.6187 Y-1.3319
N13305 X2.6228 Y-1.3276
N13310 X2.6265 Y-1.3228
N13315 X2.63 Y-1.3176
N13320 X2.6336 Y-1.3111
N13325 X2.6371 Y-1.3003
N13330 X2.6384 Y-1.289
N13335 X2.6373 Y-1.2776
N13340 X2.6338 Y-1.2668
N13345 X2.6282 Y-1.2569
N13350 X2.6207 Y-1.2483
N13355 X2.6116 Y-1.2415
N13360 X2.6013 Y-1.2367
N13365 X2.5958 Y-1.2348
N13370 X2.5715 Y-1.2236
N13375 X2.568 Y-1.2216
N13380 X2.5622 Y-1.2181
N13385 G3 X2.5372 Y-1.2186 I-0.0121 J-0.0219
N13390 X2.5437 Y-1.2524 I0.0095 J-0.0157
N13395 X2.5769 Y-1.2424 I0.0063 J0.0389
N13400 G2 X2.6013 Y-1.2367 I0.0171 J-0.0183
N13405 G1 X2.6223 Y-1.2438 F10.26
N13410 X2.6312 Y-1.2465
N13415 X2.6382 Y-1.2485
N13420 X2.6439 Y-1.2505
N13425 X2.6492 Y-1.2534
N13430 X2.6571 Y-1.261
N13435 X2.663 Y-1.2704
N13440 X2.6664 Y-1.2808
N13445 X2.6672 Y-1.2919
N13450 X2.6653 Y-1.3027
N13455 X2.6608 Y-1.3128
N13460 X2.654 Y-1.3215
N13465 X2.6453 Y-1.3283
N13470 X2.6353 Y-1.3328
N13475 X2.6223 Y-1.3368
N13480 X2.5984 Y-1.3443
N13485 G2 X2.5742 Y-1.3381 I-0.0067 J0.0241 F11.4
N13490 X2.5839 Y-1.3149 I0.0095 J0.0097
N13495 X2.6111 Y-1.3264 I-0.0006 J-0.0394
N13500 G3 X2.6353 Y-1.3328 I0.0177 J0.0177
N13505 G1 X2.6489 Y-1.3287
N13510 X2.6577 Y-1.3266
N13515 X2.6648 Y-1.3252
N13520 X2.6706 Y-1.3237
N13525 X2.6761 Y-1.3212
N13530 X2.6832 Y-1.3147
N13535 X2.6885 Y-1.3067
N13540 X2.6915 Y-1.2975
N13545 X2.692 Y-1.2879
N13550 X2.69 Y-1.2785
N13555 X2.6857 Y-1.2699
N13560 X2.6793 Y-1.2627
N13565 X2.6713 Y-1.2574
N13570 X2.6622 Y-1.2544
N13575 G3 X2.6507 Y-1.2548 I-0.0047 J-0.0291
N13580 X2.6648 Y-1.3252 I0.0083 J-0.0349
N13585 G1 X2.6754 Y-1.3231
N13590 X2.6843 Y-1.3218
N13595 X2.6868 Y-1.3216
N13600 X2.6927 Y-1.3207
N13605 X2.6984 Y-1.3186
N13610 X2.7035 Y-1.3156
N13615 X2.7098 Y-1.3084
N13620 X2.7137 Y-1.2998
N13625 X2.7149 Y-1.2904
N13630 X2.7134 Y-1.281
N13635 X2.7093 Y-1.2725
N13640 X2.7029 Y-1.2655
N13645 X2.6947 Y-1.2606
N13650 X2.6855 Y-1.2583
N13655 X2.6835
N13660 X2.6814 Y-1.2584
N13665 G3 X2.6868 Y-1.3216 I0.0033 J-0.0315
N13670 G1 X2.702 Y-1.32
N13675 X2.7109 Y-1.3192
N13680 X2.7168 Y-1.3185
N13685 X2.7224 Y-1.3162
N13690 X2.7293 Y-1.3099
N13695 X2.7339 Y-1.3018
N13700 X2.7359 Y-1.2927
N13705 X2.735 Y-1.2834
N13710 X2.7313 Y-1.2748
N13715 X2.7252 Y-1.2677
N13720 X2.7173 Y-1.2628
N13725 X2.7082 Y-1.2605
N13730 X2.7052 Y-1.2607
N13735 G3 X2.7109 Y-1.3192 I0.0043 J-0.0291
N13740 G1 X2.7286 Y-1.3178
N13745 X2.7312 Y-1.3176
N13750 X2.7372 Y-1.3169
N13755 X2.7428 Y-1.3148
N13760 X2.7495 Y-1.3089
N13765 X2.7539 Y-1.3012
N13770 X2.7558 Y-1.2925
N13775 X2.755 Y-1.2836
N13780 X2.7514 Y-1.2755
N13785 X2.7455 Y-1.2688
N13790 X2.7379 Y-1.2642
N13795 X2.7292 Y-1.2622
N13800 X2.7272 Y-1.2623
N13805 G3 X2.7312 Y-1.3176 I0.0031 J-0.0276
N13810 G1 X2.7374 Y-1.3172
N13815 X2.7418 Y-1.317
N13820 X2.7441 Y-1.3166
N13825 X2.7463 Y-1.3161
N13830 X2.7501 Y-1.3145
N13835 X2.7521 Y-1.3135
N13840 X2.754 Y-1.3121
N13845 X2.7551 Y-1.3113
N13850 X2.7571 Y-1.3095
N13855 X2.7591 Y-1.3073
N13860 X2.7606 Y-1.3053
N13865 X2.7618 Y-1.3033
N13870 X2.7631 Y-1.3003
N13875 X2.764 Y-1.2973
N13880 X2.7645 Y-1.2944
N13885 X2.7646 Y-1.29
N13890 X2.7645 Y-1.2856
N13895 X2.764 Y-1.2827
N13900 X2.7631 Y-1.2797
N13905 X2.7618 Y-1.2767
N13910 X2.7606 Y-1.2747
N13915 X2.7591 Y-1.2727
N13920 X2.7571 Y-1.2705
N13925 X2.7551 Y-1.2687
N13930 X2.754 Y-1.2679
N13935 X2.7521 Y-1.2665
N13940 X2.7501 Y-1.2655
N13945 X2.7463 Y-1.2639
N13950 X2.7441 Y-1.2634
N13955 X2.7418 Y-1.263
N13960 X2.7374 Y-1.2628
N13965 X2.7286 Y-1.2622
N13970 X2.7094 Y-1.2606
N13975 X2.702 Y-1.26
N13980 X2.6843 Y-1.2582
N13985 X2.6754 Y-1.257
N13990 X2.6577 Y-1.2535
N13995 X2.6489 Y-1.2516
N14000 X2.6382 Y-1.2485
N14005 G3 X2.6112 Y-1.259 I-0.0061 J-0.0242
N14010 G1 X2.6091 Y-1.2623 Z-0.354
N14015 X2.607 Y-1.2655 Z-0.3531
N14020 X2.605 Y-1.2685 Z-0.3516
N14025 X2.6031 Y-1.2713 Z-0.3496
N14030 X2.6015 Y-1.2738 Z-0.347
N14035 X2.6001 Y-1.2759 Z-0.344
N14040 X2.599 Y-1.2776 Z-0.3407
N14045 X2.5981 Y-1.2789 Z-0.3371
N14050 X2.5976 Y-1.2796 Z-0.3332
N14055 X2.5975 Y-1.2799 Z-0.3293
N14060 G0 Z0.2
N14065 G1 X1.7063 Y-2.001 F650.
N14070 G0 Z-0.3043
N14075 G1 Z-0.3293 F11.4
N14080 Y-2.0013 Z-0.3332
N14085 Y-2.0023 Z-0.3371
N14090 Y-2.0038 Z-0.3407
N14095 Y-2.0058 Z-0.344
N14100 Y-2.0084 Z-0.347
N14105 Y-2.0113 Z-0.3496
N14110 Y-2.0147 Z-0.3516
N14115 Y-2.0183 Z-0.3531
N14120 Y-2.0221 Z-0.354
N14125 Y-2.026 Z-0.3543
N14130 G3 X1.7139 Y-2.056 I0.0623 J-0.0001
N14135 G1 X1.7243 Y-2.0737
N14140 X1.728 Y-2.0805
N14145 X1.7363 Y-2.1003
N14150 X1.7389 Y-2.1057
N14155 X1.742 Y-2.1108
N14160 X1.7456 Y-2.1156
N14165 X1.7497 Y-2.12
N14170 X1.7542 Y-2.124
N14175 X1.759 Y-2.1276
N14180 X1.7649 Y-2.1312
N14185 X1.7712 Y-2.1345
N14190 X1.7834 Y-2.138
N14195 X1.796 Y-2.1385
N14200 X1.8084 Y-2.1361
N14205 X1.8199 Y-2.1308
N14210 X1.8299 Y-2.1231
N14215 X1.8377 Y-2.1132
N14220 X1.8431 Y-2.1017
N14225 X1.852 Y-2.0805
N14230 X1.8555 Y-2.0737
N14235 X1.8626 Y-2.0614
N14240 G3 X1.8617 Y-2.0364 I-0.0221 J0.0117
N14245 X1.827 Y-2.043 I-0.0161 J-0.0101
N14250 X1.8372 Y-2.0774 I0.0387 J-0.0073
N14255 G2 X1.8431 Y-2.1017 I-0.0181 J-0.0173
N14260 G1 X1.8343 Y-2.1282 F10.26
N14265 X1.832 Y-2.1357
N14270 X1.8316 Y-2.1372
N14275 X1.8298 Y-2.1429
N14280 X1.8271 Y-2.1483
N14285 X1.8235 Y-2.1533
N14290 X1.8156 Y-2.1602
N14295 X1.8062 Y-2.1651
N14300 X1.796 Y-2.1676
N14305 X1.7855 Y-2.1677
N14310 X1.7752 Y-2.1654
N14315 X1.7657 Y-2.1607
N14320 X1.7577 Y-2.1539
N14325 X1.7514 Y-2.1454
N14330 X1.7473 Y-2.1357
N14335 X1.7446 Y-2.1269
N14340 X1.7382 Y-2.106
N14345 X1.7369 Y-2.1016
N14350 X1.7363 Y-2.1003
N14355 G2 X1.7403 Y-2.0756 I0.0234 J0.0089 F11.4
N14360 X1.7659 Y-2.0855 I0.0112 J-0.0091
N14365 X1.7541 Y-2.1117 I-0.0393 J0.002
N14370 G3 X1.7473 Y-2.1357 I0.0175 J-0.0179
N14375 G1 X1.7524 Y-2.1534
N14380 X1.7546 Y-2.161
N14385 X1.755 Y-2.1637
N14390 X1.7562 Y-2.1696
N14395 X1.7584 Y-2.1752
N14400 X1.7647 Y-2.1828
N14405 X1.7727 Y-2.1884
N14410 X1.782 Y-2.1917
N14415 X1.7918 Y-2.1924
N14420 X1.8014 Y-2.1904
N14425 X1.8102 Y-2.1859
N14430 X1.8174 Y-2.1792
N14435 X1.8226 Y-2.1709
N14440 X1.8253 Y-2.1614
N14445 X1.8255 Y-2.1574
N14450 X1.8251 Y-2.1534
N14455 G3 X1.755 Y-2.1637 I-0.0349 J-0.0063
N14460 G1 X1.7574 Y-2.18
N14465 X1.7587 Y-2.1888
N14470 X1.7596 Y-2.1948
N14475 X1.7619 Y-2.2003
N14480 X1.7685 Y-2.2076
N14485 X1.777 Y-2.2126
N14490 X1.7866 Y-2.2148
N14495 X1.7964 Y-2.2141
N14500 X1.8056 Y-2.2106
N14505 X1.8133 Y-2.2044
N14510 X1.8188 Y-2.1963
N14515 X1.8216 Y-2.1868
N14520 X1.8217 Y-2.1842
N14525 X1.8214 Y-2.1815
N14530 G3 X1.7587 Y-2.1888 I-0.0312 J-0.0054
N14535 G1 X1.7609 Y-2.2114
N14540 X1.7618 Y-2.2174
N14545 X1.7641 Y-2.2229
N14550 X1.7704 Y-2.2296
N14555 X1.7785 Y-2.2341
N14560 X1.7875 Y-2.236
N14565 X1.7967 Y-2.2351
N14570 X1.8052 Y-2.2315
N14575 X1.8122 Y-2.2255
N14580 X1.8171 Y-2.2176
N14585 X1.8194 Y-2.2087
N14590 Y-2.2069
N14595 X1.8192 Y-2.205
N14600 G3 X1.7609 Y-2.2114 I-0.029 J-0.0046
N14605 G1 X1.7621 Y-2.2243
N14610 X1.7626 Y-2.2313
N14615 X1.7633 Y-2.2373
N14620 X1.7653 Y-2.2429
N14625 X1.7712 Y-2.2495
N14630 X1.7789 Y-2.254
N14635 X1.7875 Y-2.2559
N14640 X1.7963 Y-2.255
N14645 X1.8044 Y-2.2515
N14650 X1.8111 Y-2.2456
N14655 X1.8156 Y-2.238
N14660 X1.8176 Y-2.2294
N14665 X1.8175 Y-2.2274
N14670 G3 X1.7626 Y-2.2313 I-0.0274 J-0.003
N14675 G1 X1.7627 Y-2.2331
N14680 X1.763 Y-2.242
N14685 X1.7634 Y-2.2446
N14690 X1.7643 Y-2.2477
N14695 X1.7657 Y-2.2508
N14700 X1.7669 Y-2.2528
N14705 X1.7683 Y-2.2548
N14710 X1.7703 Y-2.257
N14715 X1.7723 Y-2.2588
N14720 X1.7734 Y-2.2597
N14725 X1.7754 Y-2.261
N14730 X1.7773 Y-2.2621
N14735 X1.7811 Y-2.2636
N14740 X1.7834 Y-2.2641
N14745 X1.7856 Y-2.2645
N14750 X1.79 Y-2.2646
N14755 X1.7944 Y-2.2645
N14760 X1.7966 Y-2.2641
N14765 X1.7989 Y-2.2636
N14770 X1.8027 Y-2.2621
N14775 X1.8046 Y-2.261
N14780 X1.8066 Y-2.2597
N14785 X1.8077 Y-2.2588
N14790 X1.8097 Y-2.257
N14795 X1.8117 Y-2.2548
N14800 X1.8131 Y-2.2528
N14805 X1.8143 Y-2.2508
N14810 X1.8157 Y-2.2477
N14815 X1.8166 Y-2.2446
N14820 X1.817 Y-2.242
N14825 X1.8173 Y-2.2331
N14830 X1.8179 Y-2.2243
N14835 X1.8187 Y-2.2154
N14840 X1.8213 Y-2.1888
N14845 X1.8226 Y-2.18
N14850 X1.8254 Y-2.161
N14855 X1.8273 Y-2.1534
N14860 X1.8316 Y-2.1372
N14865 G0 Z0.2
N14870 G1 X1.0775 Y-1.2058 F650.
N14875 G0 Z-0.3043
N14880 G1 Z-0.3293 F11.4
N14885 X1.0772 Z-0.3332
N14890 X1.0763 Z-0.3371
N14895 X1.0748 Z-0.3407
N14900 X1.0728 Y-1.2059 Z-0.344
N14905 X1.0702 Z-0.347
N14910 X1.0672 Y-1.206 Z-0.3496
N14915 X1.0639 Y-1.2061 Z-0.3516
N14920 X1.0603 Y-1.2062 Z-0.3531
N14925 X1.0565 Y-1.2063 Z-0.354
N14930 X1.0526 Y-1.2064 Z-0.3543
N14935 G3 X1.0228 Y-1.2147 I0.0015 J-0.0623
N14940 G1 X1.0108 Y-1.2222
N14945 X1.0085 Y-1.2236
N14950 X0.9842 Y-1.2348
N14955 X0.9816 Y-1.2357
N14960 X0.976 Y-1.2378
N14965 X0.9707 Y-1.2406
N14970 X0.9658 Y-1.2441
N14975 X0.9613 Y-1.2481
N14980 X0.9572 Y-1.2524
N14985 X0.9535 Y-1.2572
N14990 X0.95 Y-1.2624
N14995 X0.9464 Y-1.2689
N15000 X0.9429 Y-1.2797
N15005 X0.9416 Y-1.291
N15010 X0.9427 Y-1.3024
N15015 X0.9462 Y-1.3132
N15020 X0.9518 Y-1.3231
N15025 X0.9593 Y-1.3317
N15030 X0.9684 Y-1.3385
N15035 X0.9787 Y-1.3433
N15040 X0.9842 Y-1.3452
N15045 X1.0085 Y-1.3564
N15050 X1.012 Y-1.3584
N15055 X1.0178 Y-1.3619
N15060 G3 X1.0428 Y-1.3614 I0.0121 J0.0219
N15065 X1.0363 Y-1.3276 I-0.0095 J0.0157
N15070 X1.0031 Y-1.3376 I-0.0063 J-0.0389
N15075 G2 X0.9787 Y-1.3433 I-0.0171 J0.0183
N15080 G1 X0.9577 Y-1.3362 F10.26
N15085 X0.9488 Y-1.3335
N15090 X0.9418 Y-1.3315
N15095 X0.9361 Y-1.3295
N15100 X0.9308 Y-1.3266
N15105 X0.9229 Y-1.319
N15110 X0.917 Y-1.3096
N15115 X0.9136 Y-1.2992
N15120 X0.9128 Y-1.2881
N15125 X0.9147 Y-1.2773
N15130 X0.9192 Y-1.2672
N15135 X0.926 Y-1.2585
N15140 X0.9347 Y-1.2517
N15145 X0.9447 Y-1.2472
N15150 X0.9577 Y-1.2432
N15155 X0.9816 Y-1.2357
N15160 G2 X1.0058 Y-1.2419 I0.0067 J-0.0241 F11.4
N15165 X0.9961 Y-1.2651 I-0.0095 J-0.0097
N15170 X0.9689 Y-1.2536 I0.0006 J0.0394
N15175 G3 X0.9447 Y-1.2472 I-0.0177 J-0.0177
N15180 G1 X0.9311 Y-1.2513
N15185 X0.9223 Y-1.2534
N15190 X0.9152 Y-1.2548
N15195 X0.9094 Y-1.2563
N15200 X0.9039 Y-1.2588
N15205 X0.8968 Y-1.2653
N15210 X0.8915 Y-1.2733
N15215 X0.8885 Y-1.2825
N15220 X0.888 Y-1.2921
N15225 X0.89 Y-1.3015
N15230 X0.8943 Y-1.3101
N15235 X0.9007 Y-1.3173
N15240 X0.9087 Y-1.3226
N15245 X0.9178 Y-1.3256
N15250 G3 X0.9293 Y-1.3252 I0.0047 J0.0291
N15255 X0.9152 Y-1.2548 I-0.0083 J0.0349
N15260 G1 X0.9046 Y-1.2569
N15265 X0.8957 Y-1.2582
N15270 X0.8932 Y-1.2584
N15275 X0.8873 Y-1.2593
N15280 X0.8816 Y-1.2614
N15285 X0.8765 Y-1.2644
N15290 X0.8702 Y-1.2716
N15295 X0.8663 Y-1.2802
N15300 X0.8651 Y-1.2896
N15305 X0.8666 Y-1.299
N15310 X0.8707 Y-1.3075
N15315 X0.8771 Y-1.3145
N15320 X0.8853 Y-1.3194
N15325 X0.8945 Y-1.3217
N15330 X0.8965
N15335 X0.8986 Y-1.3216
N15340 G3 X0.8932 Y-1.2584 I-0.0033 J0.0315
N15345 G1 X0.878 Y-1.26
N15350 X0.8691 Y-1.2608
N15355 X0.8632 Y-1.2615
N15360 X0.8576 Y-1.2638
N15365 X0.8507 Y-1.2701
N15370 X0.8461 Y-1.2782
N15375 X0.8441 Y-1.2873
N15380 X0.845 Y-1.2966
N15385 X0.8487 Y-1.3052
N15390 X0.8548 Y-1.3123
N15395 X0.8627 Y-1.3172
N15400 X0.8718 Y-1.3195
N15405 X0.8748 Y-1.3193
N15410 G3 X0.8691 Y-1.2608 I-0.0043 J0.0291
N15415 G1 X0.8514 Y-1.2622
N15420 X0.8488 Y-1.2624
N15425 X0.8428 Y-1.2631
N15430 X0.8372 Y-1.2652
N15435 X0.8305 Y-1.2711
N15440 X0.8261 Y-1.2788
N15445 X0.8242 Y-1.2875
N15450 X0.825 Y-1.2964
N15455 X0.8286 Y-1.3045
N15460 X0.8345 Y-1.3112
N15465 X0.8421 Y-1.3158
N15470 X0.8508 Y-1.3178
N15475 X0.8528 Y-1.3177
N15480 G3 X0.8488 Y-1.2624 I-0.0031 J0.0276
N15485 G1 X0.8426 Y-1.2628
N15490 X0.8382 Y-1.263
N15495 X0.8359 Y-1.2634
N15500 X0.8337 Y-1.2639
N15505 X0.8299 Y-1.2655
N15510 X0.8279 Y-1.2665
N15515 X0.826 Y-1.2679
N15520 X0.8249 Y-1.2687
N15525 X0.8229 Y-1.2705
N15530 X0.8209 Y-1.2727
N15535 X0.8194 Y-1.2747
N15540 X0.8182 Y-1.2767
N15545 X0.8169 Y-1.2797
N15550 X0.816 Y-1.2827
N15555 X0.8155 Y-1.2856
N15560 X0.8154 Y-1.29
N15565 X0.8155 Y-1.2944
N15570 X0.816 Y-1.2973
N15575 X0.8169 Y-1.3003
N15580 X0.8182 Y-1.3033
N15585 X0.8194 Y-1.3053
N15590 X0.8209 Y-1.3073
N15595 X0.8229 Y-1.3095
N15600 X0.8249 Y-1.3113
N15605 X0.826 Y-1.3121
N15610 X0.8279 Y-1.3135
N15615 X0.8299 Y-1.3145
N15620 X0.8337 Y-1.3161
N15625 X0.8359 Y-1.3166
N15630 X0.8382 Y-1.317
N15635 X0.8426 Y-1.3172
N15640 X0.8514 Y-1.3178
N15645 X0.8706 Y-1.3194
N15650 X0.878 Y-1.32
N15655 X0.8957 Y-1.3218
N15660 X0.9046 Y-1.323
N15665 X0.9223 Y-1.3265
N15670 X0.9311 Y-1.3284
N15675 X0.9418 Y-1.3315
N15680 X0.9447 Y-1.332
N15685 X0.9476 Y-1.3323
N15690 X0.9479
N15695 X0.9509 Y-1.3317 Z-0.3541
N15700 X0.9538 Y-1.3312 Z-0.3535
N15705 X0.9566 Y-1.3307 Z-0.3526
N15710 X0.9593 Y-1.3291 Z-0.3511
N15715 X0.9619 Y-1.3276 Z-0.3491
N15720 X0.9642 Y-1.3263 Z-0.3467
N15725 X0.9658 Y-1.3244 Z-0.3438
N15730 X0.9671 Y-1.323 Z-0.3405
N15735 X0.968 Y-1.3219 Z-0.3369
N15740 X0.9686 Y-1.3212 Z-0.3332
N15745 X0.9688 Y-1.321 Z-0.3293
N15750 G0 Z0.2
N15755 G1 X1.5792 Y-0.819 F650.
N15760 G0 Z-0.2648
N15765 G1 Z-0.2898 F11.4
N15770 Y-0.8187 Z-0.2937
N15775 X1.579 Y-0.8178 Z-0.2975
N15780 X1.5789 Y-0.8163 Z-0.3012
N15785 X1.5786 Y-0.8142 Z-0.3045
N15790 X1.5783 Y-0.8117 Z-0.3075
N15795 X1.578 Y-0.8087 Z-0.31
N15800 X1.5776 Y-0.8054 Z-0.3121
N15805 X1.5771 Y-0.8018 Z-0.3136
N15810 X1.5767 Y-0.798 Z-0.3145
N15815 X1.5762 Y-0.7942 Z-0.3148
N15820 G3 X1.5451 Y-0.6602 I-0.6336 J-0.0765
N15825 G1 X1.5429 Y-0.6546
N15830 X1.5385 Y-0.6506
N15835 X1.5335 Y-0.6473
N15840 X1.5282 Y-0.6445
N15845 X1.5222 Y-0.6419
N15850 X1.5148 Y-0.6395
N15855 X1.506 Y-0.6373
N15860 X1.4962 Y-0.6357
N15865 X1.4843 Y-0.6347
N15870 X1.4705
N15875 X1.4682 Y-0.6349
N15880 X1.4603 Y-0.636
N15885 X1.4527 Y-0.6382
N15890 X1.4455 Y-0.6415
N15895 X1.427 Y-0.6513
N15900 X1.4174 Y-0.6568
N15905 X1.4004 Y-0.6672
N15910 X1.3827 Y-0.6789
N15915 X1.3561 Y-0.6966
N15920 X1.3502 Y-0.7011
N15925 X1.3284 Y-0.7188
N15930 X1.303 Y-0.7396
N15935 X1.2967 Y-0.7454
N15940 X1.2853 Y-0.7563
N15945 X1.2764 Y-0.765
N15950 X1.2587 Y-0.7827
N15955 X1.2519 Y-0.7897
N15960 X1.241 Y-0.8014
N15965 X1.236 Y-0.8074
N15970 X1.2056 Y-0.8445
N15975 X1.2001 Y-0.8516
N15980 X1.1819 Y-0.8782
N15985 X1.176 Y-0.8871
N15990 X1.1613 Y-0.9092
N15995 X1.1587 Y-0.9136
N16000 X1.149 Y-0.9313
N16005 X1.1348 Y-0.9581
N16010 X1.1302 Y-0.9668
N16015 X1.1259 Y-0.9758
N16020 X1.1187 Y-0.9933
N16025 X1.1171 Y-0.9974
N16030 X1.1153 Y-1.0022
N16035 X1.1049 Y-1.0288
N16040 X1.1008 Y-1.0376
N16045 X1.0905 Y-1.059
N16050 X1.0876 Y-1.0642
N16055 X1.0774 Y-1.0819
N16060 X1.0728 Y-1.0895
N16065 X1.0639 Y-1.1032
N16070 X1.0603 Y-1.1085
N16075 X1.0551 Y-1.1144
N16080 X1.0374 Y-1.132
N16085 X1.0342 Y-1.135
N16090 X1.0108 Y-1.1565
N16095 X1.005 Y-1.1616
N16100 X1.002 Y-1.164
N16105 X0.9931 Y-1.17
N16110 X0.9842 Y-1.1754
N16115 X0.977 Y-1.1793
N16120 X0.9577 Y-1.1885
N16125 X0.9488 Y-1.1925
N16130 X0.9311 Y-1.2002
N16135 X0.9223 Y-1.2039
N16140 X0.9046 Y-1.2103
N16145 X0.8957 Y-1.2132
N16150 X0.878 Y-1.2169
N16155 X0.8691 Y-1.2187
N16160 X0.8603 Y-1.2202
N16165 X0.8514 Y-1.2218
N16170 X0.8426 Y-1.2242
N16175 X0.8337 Y-1.2266
N16180 X0.8249 Y-1.2292
N16185 X0.82 Y-1.2307
N16190 X0.816 Y-1.232
N16195 X0.8149 Y-1.2324
N16200 X0.813 Y-1.2334
N16205 X0.811 Y-1.2346
N16210 X0.8072 Y-1.2377
N16215 X0.8054 Y-1.2395
N16220 X0.804 Y-1.2413
N16225 X0.8026 Y-1.2435
N16230 X0.8015 Y-1.2457
N16235 X0.8007 Y-1.2479
N16240 X0.8001 Y-1.2501
N16245 X0.7996 Y-1.2524
N16250 X0.7994 Y-1.2546
N16255 Y-1.2679
N16260 Y-1.306
N16265 X0.7997 Y-1.312
N16270 X0.801 Y-1.3178
N16275 X0.8032 Y-1.3234
N16280 X0.8061 Y-1.3286
N16285 X0.8099 Y-1.3341
N16290 X0.8112 Y-1.3356
N16295 X0.8199 Y-1.3442
N16300 X0.8303 Y-1.3509
N16305 X0.8418 Y-1.3552
N16310 G3 X0.8936 Y-1.279 I0.0106 J0.0484
N16315 X0.7994 Y-1.306 I-0.0427 J-0.0288
N16320 G1 Y-1.321
N16325 X0.7995 Y-1.3254
N16330 X0.7998 Y-1.3276
N16335 X0.8003 Y-1.3299
N16340 X0.801 Y-1.3321
N16345 X0.8019 Y-1.3343
N16350 X0.8032 Y-1.3365
N16355 X0.8047 Y-1.3387
N16360 X0.8072 Y-1.3414
N16365 X0.8094 Y-1.3434
N16370 X0.8116 Y-1.345
N16375 X0.816 Y-1.3473
N16380 X0.8208 Y-1.3495
N16385 X0.8249 Y-1.3508
N16390 X0.8426 Y-1.3553
N16395 X0.8691 Y-1.3613
N16400 X0.8957 Y-1.3668
N16405 X0.9046 Y-1.3695
N16410 X0.9223 Y-1.3757
N16415 X0.9311 Y-1.3791
N16420 X0.9488 Y-1.3863
N16425 X0.9577 Y-1.3904
N16430 X0.9784 Y-1.4007
N16435 X0.9842 Y-1.4044
N16440 X0.9931 Y-1.4104
N16445 X1.0044 Y-1.4184
N16450 X1.0108 Y-1.4233
N16455 X1.0285 Y-1.4377
N16460 X1.0362 Y-1.445
N16465 X1.0551 Y-1.4661
N16470 X1.0596 Y-1.4715
N16475 X1.0639 Y-1.4771
N16480 X1.0728 Y-1.4893
N16485 X1.0784 Y-1.4981
N16490 X1.0882 Y-1.5158
N16495 X1.0905 Y-1.52
N16500 X1.0927 Y-1.5247
N16505 X1.1009 Y-1.5424
N16510 X1.1049 Y-1.5512
N16515 X1.1153 Y-1.5778
N16520 X1.1171 Y-1.5826
N16525 X1.1187 Y-1.5867
N16530 X1.126 Y-1.6044
N16535 X1.1302 Y-1.6132
N16540 X1.1442 Y-1.6398
N16545 X1.149 Y-1.6487
N16550 X1.1587 Y-1.6664
N16555 X1.1613 Y-1.6708
N16560 X1.179 Y-1.6975
N16565 X1.1819 Y-1.7018
N16570 X1.2001 Y-1.7284
N16575 X1.2056 Y-1.7355
N16580 X1.236 Y-1.7726
N16585 X1.241 Y-1.7786
N16590 X1.2519 Y-1.7903
N16595 X1.2606 Y-1.7992
N16600 X1.2783 Y-1.8169
N16605 X1.2853 Y-1.8237
N16610 X1.2967 Y-1.8346
N16615 X1.303 Y-1.8404
N16620 X1.3296 Y-1.8621
N16625 X1.3502 Y-1.8789
N16630 X1.3561 Y-1.8834
N16635 X1.3916 Y-1.907
N16640 X1.4004 Y-1.9128
N16645 X1.4181 Y-1.9236
N16650 X1.427 Y-1.9287
N16655 X1.4535 Y-1.9428
N16660 X1.4801 Y-1.9559
N16665 X1.4859 Y-1.9586
N16670 X1.5155 Y-1.9698
N16675 X1.5244 Y-1.9732
N16680 X1.5421 Y-1.9809
N16685 X1.5509 Y-1.9855
N16690 X1.5686 Y-1.995
N16695 X1.5775 Y-2.
N16700 X1.5972 Y-2.0117
N16705 X1.6041 Y-2.0168
N16710 X1.6129 Y-2.0238
N16715 X1.6196 Y-2.0294
N16720 X1.6218 Y-2.0316
N16725 X1.6282 Y-2.0383
N16730 X1.6445 Y-2.056
N16735 X1.6528 Y-2.0649
N16740 X1.6601 Y-2.0737
N16745 X1.666 Y-2.0809
N16750 X1.6673 Y-2.0826
N16755 X1.6779 Y-2.1003
N16760 X1.6825 Y-2.1091
N16765 X1.6945 Y-2.1357
N16770 X1.706 Y-2.1623
N16775 X1.709 Y-2.1711
N16780 X1.7143 Y-2.1888
N16785 X1.7161 Y-2.1977
N16790 X1.7193 Y-2.2154
N16795 X1.7209 Y-2.2243
N16800 X1.7229 Y-2.2331
N16805 X1.7254 Y-2.242
N16810 X1.728 Y-2.2511
N16815 X1.7305 Y-2.2597
N16820 X1.732 Y-2.2641
N16825 X1.7331 Y-2.2663
N16830 X1.7343 Y-2.2685
N16835 X1.7369 Y-2.2718
N16840 X1.7403 Y-2.2751
N16845 X1.7437 Y-2.2774
N16850 X1.7457 Y-2.2784
N16855 X1.7479 Y-2.2793
N16860 X1.7502 Y-2.2799
N16865 X1.7524 Y-2.2803
N16870 X1.7546 Y-2.2806
N16875 X1.7723
N16880 X1.8059
N16885 X1.8119 Y-2.2803
N16890 X1.8178 Y-2.279
N16895 X1.8234 Y-2.2768
N16900 X1.8286 Y-2.2739
N16905 X1.8342 Y-2.27
N16910 X1.8354 Y-2.269
N16915 X1.8441 Y-2.2601
N16920 X1.8508 Y-2.2495
N16925 X1.855 Y-2.2377
N16930 G3 X1.7796 Y-2.1864 I-0.0484 J0.01
N16935 X1.8059 Y-2.2806 I0.0281 J-0.0429
N16940 G1 X1.8166
N16945 X1.8254 Y-2.2805
N16950 X1.8276 Y-2.2802
N16955 X1.8298 Y-2.2798
N16960 X1.8321 Y-2.2791
N16965 X1.8343 Y-2.2781
N16970 X1.8357 Y-2.2774
N16975 X1.8375 Y-2.2762
N16980 X1.8394 Y-2.2748
N16985 X1.8415 Y-2.2729
N16990 X1.8431 Y-2.271
N16995 X1.8449 Y-2.2685
N17000 X1.8493 Y-2.2597
N17005 X1.8518 Y-2.2508
N17010 X1.8583 Y-2.2243
N17015 X1.8603 Y-2.2154
N17020 X1.8637 Y-2.1977
N17025 X1.8657 Y-2.1888
N17030 X1.8709 Y-2.1711
N17035 X1.8739 Y-2.1623
N17040 X1.8844 Y-2.1357
N17045 X1.8963 Y-2.1091
N17050 X1.8987 Y-2.1047
N17055 X1.9014 Y-2.1003
N17060 X1.914 Y-2.0819
N17065 X1.9265 Y-2.0649
N17070 X1.9317 Y-2.0583
N17075 X1.9335 Y-2.056
N17080 X1.9405 Y-2.0488
N17085 X1.9511 Y-2.0383
N17090 X1.9582 Y-2.0316
N17095 X1.9607 Y-2.0294
N17100 X1.9671 Y-2.0241
N17105 X1.9759 Y-2.0169
N17110 X1.9824 Y-2.0117
N17115 X1.996 Y-2.0029
N17120 X2.0025 Y-1.999
N17125 X2.0119 Y-1.994
N17130 X2.0294 Y-1.9852
N17135 X2.0379 Y-1.9809
N17140 X2.0556 Y-1.9732
N17145 X2.0706 Y-1.9675
N17150 X2.0941 Y-1.9586
N17155 X2.0999 Y-1.9559
N17160 X2.1265 Y-1.9428
N17165 X2.153 Y-1.9287
N17170 X2.1626 Y-1.9232
N17175 X2.1796 Y-1.9128
N17180 X2.1973 Y-1.9011
N17185 X2.2239 Y-1.8834
N17190 X2.2298 Y-1.8789
N17195 X2.2516 Y-1.8612
N17200 X2.277 Y-1.8404
N17205 X2.2833 Y-1.8346
N17210 X2.2947 Y-1.8237
N17215 X2.3036 Y-1.815
N17220 X2.3213 Y-1.7973
N17225 X2.3281 Y-1.7903
N17230 X2.339 Y-1.7786
N17235 X2.344 Y-1.7726
N17240 X2.3744 Y-1.7355
N17245 X2.3799 Y-1.7284
N17250 X2.3981 Y-1.7018
N17255 X2.404 Y-1.6929
N17260 X2.4187 Y-1.6708
N17265 X2.4213 Y-1.6664
N17270 X2.431 Y-1.6487
N17275 X2.4452 Y-1.6219
N17280 X2.4498 Y-1.6132
N17285 X2.4541 Y-1.6042
N17290 X2.4613 Y-1.5867
N17295 X2.4629 Y-1.5826
N17300 X2.4647 Y-1.5778
N17305 X2.4751 Y-1.5512
N17310 X2.4792 Y-1.5424
N17315 X2.4895 Y-1.521
N17320 X2.4924 Y-1.5158
N17325 X2.5026 Y-1.4981
N17330 X2.5072 Y-1.4905
N17335 X2.5161 Y-1.4768
N17340 X2.5197 Y-1.4715
N17345 X2.5249 Y-1.4656
N17350 X2.5426 Y-1.448
N17355 X2.5458 Y-1.445
N17360 X2.5692 Y-1.4235
N17365 X2.575 Y-1.4184
N17370 X2.578 Y-1.416
N17375 X2.5869 Y-1.41
N17380 X2.5958 Y-1.4046
N17385 X2.603 Y-1.4007
N17390 X2.6223 Y-1.3915
N17395 X2.6312 Y-1.3875
N17400 X2.6489 Y-1.3798
N17405 X2.6577 Y-1.3761
N17410 X2.6754 Y-1.3697
N17415 X2.6843 Y-1.3668
N17420 X2.702 Y-1.3631
N17425 X2.7109 Y-1.3613
N17430 X2.7197 Y-1.3598
N17435 X2.7286 Y-1.3582
N17440 X2.7374 Y-1.3558
N17445 X2.7463 Y-1.3534
N17450 X2.7551 Y-1.3508
N17455 X2.76 Y-1.3493
N17460 X2.764 Y-1.348
N17465 X2.7651 Y-1.3476
N17470 X2.767 Y-1.3466
N17475 X2.769 Y-1.3454
N17480 X2.7728 Y-1.3423
N17485 X2.7746 Y-1.3405
N17490 X2.776 Y-1.3387
N17495 X2.7774 Y-1.3365
N17500 X2.7785 Y-1.3343
N17505 X2.7793 Y-1.3321
N17510 X2.7799 Y-1.3299
N17515 X2.7804 Y-1.3276
N17520 X2.7806 Y-1.3254
N17525 Y-1.3121
N17530 Y-1.274
N17535 X2.7803 Y-1.268
N17540 X2.779 Y-1.2622
N17545 X2.7768 Y-1.2566
N17550 X2.7739 Y-1.2514
N17555 X2.7701 Y-1.2459
N17560 X2.7687 Y-1.2442
N17565 X2.7599 Y-1.2355
N17570 X2.7494 Y-1.2289
N17575 X2.7378 Y-1.2246
N17580 G3 X2.6859 Y-1.3009 I-0.0104 J-0.0487
N17585 X2.7806 Y-1.274 I0.043 J0.0287
N17590 G1 Y-1.259
N17595 X2.7805 Y-1.2546
N17600 X2.7803 Y-1.2524
N17605 X2.7798 Y-1.2501
N17610 X2.7791 Y-1.2479
N17615 X2.7782 Y-1.2457
N17620 X2.777 Y-1.2435
N17625 X2.7755 Y-1.2413
N17630 X2.7728 Y-1.2383
N17635 X2.7707 Y-1.2363
N17640 X2.7685 Y-1.2347
N17645 X2.764 Y-1.2324
N17650 X2.7596 Y-1.2304
N17655 X2.7551 Y-1.2289
N17660 X2.7374 Y-1.2245
N17665 X2.7197 Y-1.2207
N17670 X2.7109 Y-1.2187
N17675 X2.6843 Y-1.2132
N17680 X2.6754 Y-1.2105
N17685 X2.6577 Y-1.2043
N17690 X2.6489 Y-1.2009
N17695 X2.6312 Y-1.1937
N17700 X2.6223 Y-1.1896
N17705 X2.6016 Y-1.1793
N17710 X2.5958 Y-1.1756
N17715 X2.5869 Y-1.1696
N17720 X2.5756 Y-1.1616
N17725 X2.5692 Y-1.1567
N17730 X2.5515 Y-1.1423
N17735 X2.5438 Y-1.135
N17740 X2.5249 Y-1.1139
N17745 X2.5204 Y-1.1085
N17750 X2.5161 Y-1.1029
N17755 X2.5072 Y-1.0907
N17760 X2.5016 Y-1.0819
N17765 X2.4918 Y-1.0642
N17770 X2.4895 Y-1.06
N17775 X2.4873 Y-1.0553
N17780 X2.4791 Y-1.0376
N17785 X2.4751 Y-1.0288
N17790 X2.4647 Y-1.0022
N17795 X2.4629 Y-0.9974
N17800 X2.4613 Y-0.9933
N17805 X2.454 Y-0.9756
N17810 X2.4498 Y-0.9668
N17815 X2.4358 Y-0.9402
N17820 X2.431 Y-0.9313
N17825 X2.4213 Y-0.9136
N17830 X2.4187 Y-0.9092
N17835 X2.401 Y-0.8825
N17840 X2.3981 Y-0.8782
N17845 X2.3799 Y-0.8516
N17850 X2.3744 Y-0.8445
N17855 X2.344 Y-0.8074
N17860 X2.339 Y-0.8014
N17865 X2.3281 Y-0.7897
N17870 X2.3194 Y-0.7808
N17875 X2.3017 Y-0.7631
N17880 X2.2947 Y-0.7563
N17885 X2.2833 Y-0.7454
N17890 X2.277 Y-0.7396
N17895 X2.2504 Y-0.7179
N17900 X2.2298 Y-0.7011
N17905 X2.2239 Y-0.6966
N17910 X2.1884 Y-0.673
N17915 X2.1796 Y-0.6672
N17920 X2.1619 Y-0.6564
N17925 X2.153 Y-0.6513
N17930 X2.1265 Y-0.6372
N17935 X2.0999 Y-0.6241
N17940 X2.0941 Y-0.6214
N17945 X2.0645 Y-0.6102
N17950 X2.0556 Y-0.6068
N17955 X2.0379 Y-0.5991
N17960 X2.0291 Y-0.5945
N17965 X2.0114 Y-0.585
N17970 X2.0025 Y-0.58
N17975 X1.9828 Y-0.5683
N17980 X1.9759 Y-0.5632
N17985 X1.9671 Y-0.5562
N17990 X1.9604 Y-0.5506
N17995 X1.9582 Y-0.5484
N18000 X1.9518 Y-0.5417
N18005 X1.9355 Y-0.524
N18010 X1.9272 Y-0.5151
N18015 X1.9199 Y-0.5063
N18020 X1.914 Y-0.4991
N18025 X1.9127 Y-0.4974
N18030 X1.9021 Y-0.4797
N18035 X1.8975 Y-0.4709
N18040 X1.8855 Y-0.4443
N18045 X1.874 Y-0.4177
N18050 X1.871 Y-0.4089
N18055 X1.8657 Y-0.3912
N18060 X1.8639 Y-0.3823
N18065 X1.8607 Y-0.3646
N18070 X1.8591 Y-0.3557
N18075 X1.8571 Y-0.3469
N18080 X1.8546 Y-0.338
N18085 X1.852 Y-0.3289
N18090 X1.8495 Y-0.3203
N18095 X1.848 Y-0.3159
N18100 X1.8469 Y-0.3137
N18105 X1.8457 Y-0.3115
N18110 X1.8431 Y-0.3082
N18115 X1.8397 Y-0.3049
N18120 X1.8363 Y-0.3026
N18125 X1.8343 Y-0.3016
N18130 X1.8321 Y-0.3007
N18135 X1.8298 Y-0.3001
N18140 X1.8276 Y-0.2997
N18145 X1.8254 Y-0.2994
N18150 X1.8077
N18155 X1.7741
N18160 X1.7681 Y-0.2997
N18165 X1.7622 Y-0.301
N18170 X1.7566 Y-0.3032
N18175 X1.7514 Y-0.3061
N18180 X1.7458 Y-0.31
N18185 X1.7446 Y-0.311
N18190 X1.7359 Y-0.3199
N18195 X1.7292 Y-0.3305
N18200 X1.725 Y-0.3423
N18205 G3 X1.8004 Y-0.3936 I0.0484 J-0.01
N18210 X1.7741 Y-0.2994 I-0.0281 J0.0429
N18215 G1 X1.7634
N18220 X1.7546 Y-0.2995
N18225 X1.7524 Y-0.2998
N18230 X1.7502 Y-0.3002
N18235 X1.7479 Y-0.3009
N18240 X1.7457 Y-0.3019
N18245 X1.7443 Y-0.3026
N18250 X1.7425 Y-0.3038
N18255 X1.7406 Y-0.3052
N18260 X1.7385 Y-0.3071
N18265 X1.7369 Y-0.309
N18270 X1.7351 Y-0.3115
N18275 X1.7307 Y-0.3203
N18280 X1.7282 Y-0.3292
N18285 X1.7217 Y-0.3557
N18290 X1.7197 Y-0.3646
N18295 X1.7163 Y-0.3823
N18300 X1.7143 Y-0.3912
N18305 X1.7091 Y-0.4089
N18310 X1.7061 Y-0.4177
N18315 X1.6956 Y-0.4443
N18320 X1.6837 Y-0.4709
N18325 X1.6813 Y-0.4753
N18330 X1.6786 Y-0.4797
N18335 X1.666 Y-0.4981
N18340 X1.6535 Y-0.5151
N18345 X1.6483 Y-0.5217
N18350 X1.6465 Y-0.524
N18355 X1.6395 Y-0.5312
N18360 X1.6289 Y-0.5417
N18365 X1.6218 Y-0.5484
N18370 X1.6193 Y-0.5506
N18375 X1.6129 Y-0.5559
N18380 X1.6041 Y-0.5631
N18385 X1.5976 Y-0.5683
N18390 X1.584 Y-0.5771
N18395 X1.5775 Y-0.581
N18400 X1.5681 Y-0.586
N18405 X1.5506 Y-0.5948
N18410 X1.5421 Y-0.5991
N18415 X1.5244 Y-0.6068
N18420 X1.5094 Y-0.6125
N18425 X1.4859 Y-0.6214
N18430 X1.4801 Y-0.6241
N18435 X1.4535 Y-0.6372
N18440 X1.4455 Y-0.6415
N18445 X1.443 Y-0.6431
N18450 X1.4407 Y-0.645
N18455 X1.439 Y-0.6474 Z-0.3146
N18460 X1.4372 Y-0.6498 Z-0.3141
N18465 X1.4355 Y-0.6521 Z-0.3132
N18470 X1.4346 Y-0.6551 Z-0.3117
N18475 X1.4338 Y-0.658 Z-0.3098
N18480 X1.4331 Y-0.6605 Z-0.3075
N18485 X1.433 Y-0.6619 Z-0.306
N18490 X1.4329 Y-0.6631 Z-0.3044
N18495 X1.4331 Y-0.6651 Z-0.3011
N18500 X1.4333 Y-0.6666 Z-0.2975
N18505 Y-0.6675 Z-0.2937
N18510 X1.4334 Y-0.6678 Z-0.2898
N18515 G0 Z0.2
N18520 G1 X2.0418 Y-1.8018 F650.
N18525 G0 Z-0.2256
N18530 G1 Z-0.2506 F11.4
N18535 X2.0419 Y-1.8021 Z-0.2545
N18540 X2.042 Y-1.803 Z-0.2583
N18545 X2.0423 Y-1.8045 Z-0.2619
N18550 X2.0426 Y-1.8065 Z-0.2653
N18555 X2.043 Y-1.809 Z-0.2683
N18560 X2.0435 Y-1.812 Z-0.2708
N18565 X2.044 Y-1.8153 Z-0.2729
N18570 X2.0446 Y-1.8188 Z-0.2744
N18575 X2.0452 Y-1.8226 Z-0.2753
N18580 X2.0458 Y-1.8265 Z-0.2756
N18585 G3 X2.0824 Y-1.959 I0.63 J0.1025
N18590 G1 X2.0848 Y-1.9645
N18595 X2.0891 Y-1.9687
N18600 X2.0941 Y-1.972
N18605 X2.0994 Y-1.9747
N18610 X2.1057 Y-1.9772
N18615 X2.1129 Y-1.9794
N18620 X2.1214 Y-1.9813
N18625 X2.1314 Y-1.9827
N18630 X2.143 Y-1.9833
N18635 X2.1571 Y-1.983
N18640 X2.1739 Y-1.9813
N18645 X2.1909 Y-1.9781
N18650 X2.2109 Y-1.9727
N18655 X2.2356 Y-1.9638
N18660 X2.2537 Y-1.9556
N18665 X2.2572 Y-1.9539
N18670 X2.2605 Y-1.952
N18675 X2.2637 Y-1.9498
N18680 X2.277 Y-1.9402
N18685 X2.3036 Y-1.9201
N18690 X2.3106 Y-1.9143
N18695 X2.3478 Y-1.8809
N18700 X2.3655 Y-1.8643
N18705 X2.3688 Y-1.8612
N18710 X2.3832 Y-1.8452
N18715 X2.401 Y-1.8254
N18720 X2.4085 Y-1.8169
N18725 X2.4275 Y-1.7943
N18730 X2.4307 Y-1.7903
N18735 X2.4562 Y-1.7549
N18740 X2.4629 Y-1.7455
N18745 X2.4718 Y-1.7329
N18750 X2.4749 Y-1.7284
N18755 X2.4903 Y-1.7018
N18760 X2.5072 Y-1.6721
N18765 X2.5103 Y-1.6664
N18770 X2.5189 Y-1.6487
N18775 X2.5228 Y-1.6398
N18780 X2.5249 Y-1.6346
N18785 X2.5426 Y-1.5938
N18790 X2.5496 Y-1.5778
N18795 X2.5515 Y-1.5737
N18800 X2.5625 Y-1.5512
N18805 X2.578 Y-1.5261
N18810 X2.5791 Y-1.5247
N18815 X2.6046 Y-1.4919
N18820 X2.6068 Y-1.4893
N18825 X2.6236 Y-1.4715
N18830 X2.6312 Y-1.4649
N18835 X2.6343 Y-1.4627
N18840 X2.64 Y-1.4587
N18845 X2.6474 Y-1.4538
N18850 X2.6577 Y-1.4475
N18855 X2.6616 Y-1.445
N18860 X2.6666 Y-1.4411
N18865 X2.6849 Y-1.4273
N18870 X2.6931 Y-1.4216
N18875 X2.6985 Y-1.4184
N18880 X2.702 Y-1.4165
N18885 X2.7113 Y-1.4096
N18890 X2.7197 Y-1.4027
N18895 X2.7224 Y-1.4007
N18900 X2.7286 Y-1.3961
N18905 X2.7345 Y-1.3918
N18910 X2.7374 Y-1.3896
N18915 X2.7463 Y-1.3821
N18920 X2.7551 Y-1.3741
N18925 X2.7642 Y-1.3653
N18930 X2.774 Y-1.3564
N18935 X2.7763 Y-1.3542
N18940 X2.7782 Y-1.352
N18945 X2.7812 Y-1.3476
N18950 X2.7817 Y-1.3468
N18955 X2.7827 Y-1.3447
N18960 X2.7834 Y-1.3427
N18965 X2.7844 Y-1.3387
N18970 X2.7849 Y-1.3299
N18975 X2.7855 Y-1.3121
N18980 X2.7857 Y-1.3033
N18985 Y-1.2767
N18990 X2.7855 Y-1.2679
N18995 X2.7849 Y-1.2501
N19000 X2.7844 Y-1.2413
N19005 X2.7834 Y-1.2373
N19010 X2.7827 Y-1.2352
N19015 X2.7817 Y-1.2332
N19020 X2.7813 Y-1.2324
N19025 X2.7782 Y-1.228
N19030 X2.7763 Y-1.2258
N19035 X2.774 Y-1.2236
N19040 X2.7728 Y-1.2226
N19045 X2.764 Y-1.214
N19050 X2.7551 Y-1.2058
N19055 X2.7446 Y-1.197
N19060 X2.7346 Y-1.1882
N19065 X2.7286 Y-1.1835
N19070 X2.7197 Y-1.1773
N19075 X2.7104 Y-1.1704
N19080 X2.702 Y-1.1642
N19085 X2.6986 Y-1.1616
N19090 X2.6931 Y-1.1579
N19095 X2.6852 Y-1.1527
N19100 X2.6754 Y-1.1457
N19105 X2.6666 Y-1.1388
N19110 X2.6577 Y-1.1333
N19115 X2.6312 Y-1.1148
N19120 X2.6237 Y-1.1085
N19125 X2.6064 Y-1.0907
N19130 X2.6046 Y-1.0886
N19135 X2.5994 Y-1.0819
N19140 X2.578 Y-1.055
N19145 X2.5621 Y-1.0288
N19150 X2.5515 Y-1.0064
N19155 X2.5496 Y-1.0022
N19160 X2.5338 Y-0.9659
N19165 X2.5249 Y-0.9454
N19170 X2.5228 Y-0.9402
N19175 X2.5188 Y-0.9313
N19180 X2.5103 Y-0.9136
N19185 X2.5072 Y-0.9079
N19190 X2.4895 Y-0.8769
N19195 X2.4749 Y-0.8516
N19200 X2.4718 Y-0.8471
N19205 X2.4625 Y-0.8339
N19210 X2.4541 Y-0.8221
N19215 X2.4307 Y-0.7897
N19220 X2.4275 Y-0.7857
N19225 X2.4085 Y-0.7631
N19230 X2.4007 Y-0.7542
N19235 X2.3768 Y-0.7277
N19240 X2.3688 Y-0.7188
N19245 X2.3594 Y-0.71
N19250 X2.3478 Y-0.6991
N19255 X2.3106 Y-0.6657
N19260 X2.3036 Y-0.6599
N19265 X2.277 Y-0.6397
N19270 X2.2504 Y-0.6205
N19275 X2.2393 Y-0.6125
N19280 X2.2327 Y-0.6081
N19285 X2.215 Y-0.5973
N19290 X2.1884 Y-0.5821
N19295 X2.1796 Y-0.5771
N19300 X2.1619 Y-0.5672
N19305 X2.153 Y-0.5626
N19310 X2.124 Y-0.5506
N19315 X2.0733 Y-0.5285
N19320 X2.0645 Y-0.5245
N19325 X2.0556 Y-0.5201
N19330 X2.0468 Y-0.5149
N19335 X2.0379 Y-0.5095
N19340 X2.0202 Y-0.497
N19345 X2.0114 Y-0.4906
N19350 X1.9848 Y-0.4696
N19355 X1.9768 Y-0.462
N19360 X1.9685 Y-0.4531
N19365 X1.9671 Y-0.4515
N19370 X1.9617 Y-0.4443
N19375 X1.9582 Y-0.4396
N19380 X1.9505 Y-0.4266
N19385 X1.9494 Y-0.4249
N19390 X1.9374 Y-0.4089
N19395 X1.9306 Y-0.4
N19400 X1.9245 Y-0.3912
N19405 X1.9189 Y-0.3823
N19410 X1.914 Y-0.3742
N19415 X1.9051 Y-0.3632
N19420 X1.8991 Y-0.3557
N19425 X1.8963 Y-0.3519
N19430 X1.8928 Y-0.3469
N19435 X1.8874 Y-0.34
N19440 X1.8782 Y-0.3292
N19445 X1.8694 Y-0.3203
N19450 X1.8608 Y-0.3108
N19455 X1.853 Y-0.3026
N19460 X1.852 Y-0.3018
N19465 X1.8476 Y-0.2988
N19470 X1.8453 Y-0.2976
N19475 X1.8431 Y-0.2967
N19480 X1.8409 Y-0.296
N19485 X1.8387 Y-0.2956
N19490 X1.8343 Y-0.2952
N19495 X1.8254 Y-0.2949
N19500 X1.8166 Y-0.2946
N19505 X1.79 Y-0.2943
N19510 X1.7634 Y-0.2946
N19515 X1.7546 Y-0.2949
N19520 X1.7457 Y-0.2952
N19525 X1.7413 Y-0.2956
N19530 X1.7391 Y-0.296
N19535 X1.7369 Y-0.2967
N19540 X1.7324 Y-0.2988
N19545 X1.728 Y-0.3018
N19550 X1.727 Y-0.3026
N19555 X1.7188 Y-0.3115
N19560 X1.7103 Y-0.3205
N19565 X1.7029 Y-0.3292
N19570 X1.7015 Y-0.3309
N19575 X1.6955 Y-0.338
N19580 X1.6926 Y-0.3413
N19585 X1.6876 Y-0.3469
N19590 X1.6837 Y-0.3514
